app/public/color-luts/stageA.cube
TITLE "stage_a"
LUT_3D_SIZE 5
DOMAIN_MIN 0.0 0.0 0.0
DOMAIN_MAX 1.0 1.0 1.0
0.012549 0.029771 0.009804
0.419127 0.029771 0.076074
0.770914 0.029771 0.183876
0.931517 0.029771 0.294863
0.936880 0.029771 0.417493
0.039787 0.399733 0.009804
0.466487 0.391462 0.032472
0.797150 0.383344 0.145067
0.936880 0.373079 0.251078
0.936880 0.363752 0.371056
0.074698 0.746437 0.009804
0.515373 0.740824 0.015952
0.815852 0.737205 0.101408
0.936880 0.731983 0.206043
0.936880 0.726629 0.322929
0.123396 0.926980 0.009804
0.552220 0.924469 0.009804
0.843074 0.921647 0.054306
0.936880 0.919791 0.166560
0.936880 0.913349 0.273357
0.165951 0.947111 0.009804
0.591754 0.947111 0.009804
0.864898 0.947111 0.021083
0.936880 0.947111 0.124577
0.936880 0.947111 0.229884
0.012549 0.030526 0.374307
0.408986 0.029771 0.490037
0.763789 0.029771 0.587897
0.930486 0.029771 0.675053
0.936880 0.029771 0.752344
0.036756 0.455652 0.326829
0.455794 0.448474 0.445384
0.793145 0.440691 0.548875
0.936880 0.435841 0.639810
0.936880 0.428581 0.722437
0.065099 0.778572 0.276799
0.505420 0.773433 0.400485
0.811908 0.769984 0.511792
0.936880 0.766760 0.605949
0.936880 0.763675 0.692054
0.112887 0.937327 0.233201
0.545157 0.936181 0.350953
0.838782 0.933682 0.468616
0.936880 0.932958 0.567241
0.936880 0.931984 0.658505
0.156268 0.947111 0.189006
0.580449 0.947111 0.301114
0.860733 0.947111 0.423945
0.936880 0.947111 0.531962
0.936880 0.947111 0.622989
0.012549 0.089383 0.725025
0.396957 0.081349 0.784062
0.758576 0.072846 0.842242
0.928745 0.065296 0.882341
0.936880 0.057518 0.911788
0.027090 0.513060 0.694682
0.446592 0.506505 0.765761
0.787677 0.499976 0.820111
0.936880 0.492917 0.867872
0.936880 0.485807 0.902473
0.054540 0.812840 0.662289
0.495797 0.808521 0.741569
0.808162 0.804244 0.797405
0.936880 0.800873 0.851711
0.936880 0.794761 0.888908
0.103133 0.945604 0.625309
0.537009 0.945156 0.711998
0.833556 0.944142 0.775083
0.936880 0.943492 0.833968
0.936880 0.942425 0.876648
0.147038 0.947111 0.592889
0.573007 0.947111 0.679247
0.855804 0.947111 0.754593
0.936880 0.947111 0.808712
0.936880 0.947111 0.861102
0.012549 0.149785 0.903420
0.385878 0.142727 0.927644
0.751401 0.135248 0.943459
0.924255 0.127544 0.949179
0.936880 0.118945 0.949179
0.022570 0.569190 0.890982
0.436693 0.562382 0.920754
0.781954 0.555115 0.937798
0.935856 0.547968 0.949179
0.936880 0.540582 0.949179
0.045777 0.842313 0.876810
0.486114 0.839461 0.909056
0.803483 0.835444 0.931650
0.936880 0.831289 0.948621
0.936880 0.826582 0.949179
0.093355 0.947111 0.862043
0.528887 0.947111 0.897741
0.827620 0.947111 0.924326
0.936880 0.947111 0.939723
0.936880 0.947111 0.949179
0.138693 0.947111 0.844566
0.564283 0.947111 0.885162
0.850291 0.947111 0.915031
0.936880 0.947111 0.935806
0.936880 0.947111 0.949179
0.012549 0.208526 0.949179
0.374064 0.201090 0.949179
0.745084 0.193842 0.949179
0.921765 0.185677 0.949179
0.936880 0.178193 0.949179
0.018608 0.625622 0.949179
0.427397 0.616543 0.949179
0.774609 0.609150 0.949179
0.932405 0.602563 0.949179
0.936880 0.597437 0.949179
0.040213 0.870061 0.949179
0.475342 0.866742 0.949179
0.799960 0.864114 0.949179
0.936880 0.860662 0.949179
0.936880 0.856576 0.949179
0.083979 0.947111 0.949179
0.519989 0.947111 0.949179
0.820691 0.947111 0.949179
0.936880 0.947111 0.949179
0.936880 0.947111 0.949179
0.129890 0.947111 0.944679
0.557601 0.947111 0.949179
0.848562 0.947111 0.949179
0.936880 0.947111 0.949179
0.936880 0.947111 0.949179
