app/public/color-luts/stageA.cube
TITLE "stage_a"
LUT_3D_SIZE 33
DOMAIN_MIN 0.0 0.0 0.0
DOMAIN_MAX 1.0 1.0 1.0
0.012549 0.029771 0.009804
0.039787 0.029771 0.014994
0.084191 0.029771 0.015952
0.133681 0.029771 0.019918
0.181806 0.029771 0.025406
0.235397 0.029771 0.034118
0.294958 0.029771 0.046711
0.361135 0.029771 0.061247
0.419127 0.029771 0.076074
0.471396 0.029771 0.091391
0.520022 0.029771 0.106259
0.560229 0.029771 0.119413
0.608761 0.029771 0.132562
0.661157 0.029771 0.146835
0.699533 0.029771 0.159987
0.736404 0.029771 0.171595
0.770914 0.029771 0.183876
0.799350 0.029771 0.195694
0.820843 0.029771 0.210096
0.849641 0.029771 0.223437
0.869336 0.029771 0.238160
0.890659 0.029771 0.253244
0.907367 0.029771 0.266677
0.919648 0.029771 0.280351
0.931517 0.029771 0.294863
0.936880 0.029771 0.311055
0.936880 0.029771 0.327783
0.936880 0.029771 0.342759
0.936880 0.029771 0.357492
0.936880 0.029771 0.373045
0.936880 0.029771 0.385762
0.936880 0.029771 0.405090
0.936880 0.029771 0.417493
0.017206 0.029771 0.009804
0.041051 0.029771 0.013715
0.089979 0.029771 0.015844
0.138769 0.029771 0.018384
0.187972 0.029771 0.022384
0.241559 0.029771 0.030136
0.300920 0.029771 0.041585
0.367581 0.029771 0.055402
0.425968 0.029771 0.070879
0.478262 0.029771 0.084429
0.525317 0.029771 0.100112
0.564361 0.029771 0.114152
0.616968 0.029771 0.127615
0.664602 0.029771 0.141478
0.704595 0.029771 0.153966
0.742040 0.029771 0.167255
0.773766 0.029771 0.179554
0.800370 0.029771 0.190672
0.825420 0.029771 0.204513
0.850331 0.029771 0.219355
0.870741 0.029771 0.232946
0.891945 0.029771 0.247650
0.907367 0.029771 0.261922
0.919648 0.029771 0.274308
0.932268 0.029771 0.288682
0.936880 0.029771 0.303987
0.936880 0.029771 0.321654
0.936880 0.029771 0.335486
0.936880 0.029771 0.350692
0.936880 0.029771 0.368209
0.936880 0.029771 0.380874
0.936880 0.029771 0.396564
0.936880 0.029771 0.412661
0.021030 0.069025 0.009804
0.044561 0.068074 0.011231
0.095061 0.067136 0.014994
0.143787 0.066210 0.016613
0.193449 0.065285 0.020450
0.247199 0.064359 0.027097
0.309390 0.063434 0.036731
0.374396 0.062508 0.049596
0.430497 0.061507 0.064732
0.484710 0.060507 0.078539
0.530703 0.059506 0.094606
0.569642 0.058506 0.109357
0.620573 0.057505 0.122395
0.671706 0.056491 0.135539
0.709466 0.055463 0.149221
0.745205 0.054435 0.162769
0.776636 0.053407 0.174616
0.803381 0.052380 0.186156
0.828631 0.051352 0.198118
0.855036 0.050329 0.212697
0.873145 0.049306 0.227066
0.894725 0.048283 0.241132
0.908163 0.047260 0.256359
0.921906 0.046237 0.269300
0.934087 0.045220 0.283484
0.936880 0.044209 0.297215
0.936880 0.043198 0.314346
0.936880 0.042187 0.329787
0.936880 0.041177 0.345604
0.936880 0.040171 0.361440
0.936880 0.039374 0.375851
0.936880 0.038576 0.388793
0.936880 0.037779 0.407760
0.022608 0.121088 0.009804
0.048623 0.120006 0.009804
0.100851 0.118924 0.014938
0.148734 0.117842 0.015952
0.200094 0.116759 0.019314
0.252597 0.115677 0.023853
0.316233 0.114874 0.032204
0.381213 0.114072 0.044214
0.436882 0.113270 0.058527
0.489864 0.112468 0.073854
0.535893 0.111666 0.088065
0.575203 0.110729 0.103452
0.627271 0.109656 0.116758
0.675481 0.108583 0.130239
0.712627 0.107511 0.144758
0.748603 0.106438 0.157147
0.782031 0.105366 0.169224
0.804706 0.104433 0.181927
0.832999 0.103499 0.193410
0.856997 0.102566 0.208031
0.877519 0.101632 0.221532
0.897037 0.100699 0.235586
0.910463 0.099671 0.250700
0.924203 0.098553 0.264433
0.935878 0.097436 0.277357
0.936880 0.096319 0.292109
0.936880 0.095202 0.308238
0.936880 0.094091 0.324933
0.936880 0.093317 0.340043
0.936880 0.092543 0.354163
0.936880 0.091769 0.370730
0.936880 0.090996 0.383497
0.936880 0.090222 0.401244
0.026244 0.170925 0.009804
0.054640 0.170085 0.009804
0.107077 0.169246 0.012649
0.154799 0.168407 0.015418
0.204950 0.167529 0.017568
0.261881 0.166651 0.021349
0.323931 0.165773 0.028639
0.388565 0.164895 0.039336
0.442904 0.164017 0.052700
0.495886 0.163084 0.068257
0.540538 0.162095 0.081602
0.578842 0.161106 0.097403
0.633346 0.160117 0.112111
0.679277 0.159127 0.125205
0.716895 0.158138 0.138571
0.753100 0.157246 0.151756
0.784752 0.156353 0.165430
0.808221 0.155461 0.177328
0.834854 0.154569 0.188481
0.859926 0.153676 0.201083
0.878327 0.152726 0.216330
0.898502 0.151720 0.230648
0.910870 0.150713 0.244584
0.924875 0.149706 0.259557
0.936836 0.148700 0.271963
0.936880 0.147695 0.286137
0.936880 0.146849 0.300107
0.936880 0.146002 0.318253
0.936880 0.145155 0.331658
0.936880 0.144309 0.348339
0.936880 0.143462 0.365470
0.936880 0.142669 0.378578
0.936880 0.141925 0.392884
0.027401 0.221809 0.009804
0.061215 0.220561 0.009804
0.112876 0.219518 0.009989
0.159933 0.218478 0.014994
0.212464 0.217439 0.015952
0.268056 0.216400 0.019987
0.332352 0.215360 0.025637
0.394695 0.214348 0.034456
0.448492 0.213364 0.047082
0.501411 0.212380 0.061663
0.545152 0.211396 0.076393
0.584112 0.210412 0.091885
0.639108 0.209428 0.106660
0.683895 0.208443 0.119808
0.721540 0.207458 0.132947
0.757304 0.206474 0.147144
0.788645 0.205489 0.160409
0.809210 0.204505 0.171986
0.838775 0.203585 0.184165
0.862306 0.202729 0.196008
0.882103 0.201874 0.210403
0.898979 0.201018 0.223907
0.911668 0.200163 0.238545
0.927777 0.199307 0.253622
0.936880 0.198398 0.267017
0.936880 0.197489 0.280796
0.936880 0.196580 0.295167
0.936880 0.195672 0.311474
0.936880 0.194763 0.328157
0.936880 0.193748 0.343127
0.936880 0.192631 0.357987
0.936880 0.191514 0.373408
0.936880 0.190397 0.386098
0.033789 0.282467 0.009804
0.066918 0.281327 0.009804
0.118887 0.280188 0.009804
0.165854 0.279048 0.013873
0.218399 0.277909 0.015907
0.274997 0.276952 0.018505
0.340704 0.276193 0.022538
0.402149 0.275433 0.030404
0.454278 0.274673 0.041919
0.506653 0.273914 0.055806
0.548902 0.273154 0.071264
0.591625 0.271938 0.084849
0.646553 0.270715 0.100544
0.688294 0.269493 0.114455
0.725583 0.268271 0.127955
0.761008 0.267049 0.141910
0.791924 0.265812 0.154306
0.813336 0.264561 0.167510
0.840883 0.263309 0.179885
0.864879 0.262058 0.191026
0.884143 0.260806 0.205023
0.901867 0.259555 0.219637
0.914969 0.258574 0.233288
0.928745 0.257593 0.248105
0.936880 0.256612 0.262247
0.936880 0.255631 0.274656
0.936880 0.254651 0.289125
0.936880 0.253404 0.304564
0.936880 0.251900 0.322082
0.936880 0.250395 0.336075
0.936880 0.248891 0.351042
0.936880 0.247387 0.368535
0.936880 0.245892 0.381215
0.039631 0.338634 0.009804
0.072405 0.337233 0.009804
0.124738 0.335832 0.009804
0.171202 0.334646 0.011415
0.223686 0.333697 0.014994
0.282654 0.332748 0.016736
0.346657 0.331798 0.020519
0.409092 0.330849 0.027297
0.459204 0.329900 0.037069
0.512673 0.328555 0.049998
0.553761 0.327203 0.065188
0.597741 0.325851 0.078858
0.651410 0.324499 0.094968
0.692517 0.323147 0.109758
0.728567 0.321864 0.122759
0.763884 0.320654 0.135925
0.795949 0.319443 0.149545
0.815852 0.318233 0.163113
0.845061 0.317022 0.175007
0.866257 0.315812 0.186457
0.885608 0.314681 0.198431
0.902774 0.313550 0.213167
0.915779 0.312420 0.227536
0.930506 0.311289 0.241518
0.936880 0.310159 0.256773
0.936880 0.309185 0.269639
0.936880 0.308368 0.283827
0.936880 0.307551 0.297520
0.936880 0.306734 0.314851
0.936880 0.305917 0.330029
0.936880 0.305097 0.345972
0.936880 0.303962 0.361961
0.936880 0.302827 0.376214
0.039787 0.399733 0.009804
0.079382 0.398555 0.009804
0.130082 0.397564 0.009804
0.177620 0.396574 0.009804
0.231336 0.395583 0.014994
0.289605 0.394593 0.015952
0.355108 0.393602 0.019434
0.415891 0.392533 0.024084
0.466487 0.391462 0.032472
0.518743 0.390390 0.044585
0.557713 0.389319 0.058931
0.603317 0.388247 0.074239
0.657232 0.387225 0.088559
0.696758 0.386255 0.103884
0.733129 0.385284 0.117152
0.768713 0.384314 0.130579
0.797150 0.383344 0.145067
0.817755 0.382374 0.157569
0.848648 0.380964 0.169479
0.868442 0.379549 0.182216
0.888862 0.378133 0.193764
0.905128 0.376718 0.208338
0.919086 0.375302 0.221814
0.931435 0.374088 0.235958
0.936880 0.373079 0.251078
0.936880 0.372071 0.264758
0.936880 0.371062 0.277802
0.936880 0.370053 0.292553
0.936880 0.369044 0.308657
0.936880 0.367721 0.325356
0.936880 0.366398 0.340633
0.936880 0.365075 0.354658
0.936880 0.363752 0.371056
0.039787 0.446457 0.009804
0.086238 0.445323 0.009804
0.135124 0.444190 0.009804
0.183928 0.443056 0.009804
0.237377 0.441922 0.012807
0.297302 0.441297 0.015481
0.363297 0.440687 0.017692
0.420979 0.440078 0.021502
0.473517 0.439468 0.028838
0.520604 0.438859 0.039670
0.561404 0.438252 0.053102
0.611893 0.437648 0.068674
0.661969 0.437045 0.082022
0.701067 0.436441 0.097765
0.738399 0.435838 0.112414
0.771869 0.435234 0.125569
0.799814 0.434320 0.139003
0.822621 0.433401 0.152084
0.849975 0.432481 0.165775
0.869739 0.431562 0.177659
0.891348 0.430642 0.188782
0.907367 0.429647 0.201593
0.919648 0.428574 0.216800
0.931806 0.427500 0.230989
0.936880 0.426427 0.245039
0.936880 0.425353 0.259971
0.936880 0.424280 0.272311
0.936880 0.423666 0.286481
0.936880 0.423055 0.300684
0.936880 0.422443 0.318758
0.936880 0.421832 0.332108
0.936880 0.421220 0.348689
0.936880 0.420504 0.365991
0.041938 0.496541 0.009804
0.091748 0.495663 0.009804
0.140777 0.494786 0.009804
0.189709 0.493846 0.009804
0.243797 0.492905 0.010173
0.303840 0.491963 0.014994
0.369811 0.491021 0.015952
0.427588 0.490079 0.020056
0.481055 0.489182 0.025868
0.527316 0.488336 0.034794
0.566442 0.487489 0.047453
0.618829 0.486643 0.062119
0.667295 0.485796 0.076712
0.706383 0.484950 0.092379
0.743203 0.483284 0.107061
0.774746 0.481597 0.120202
0.801679 0.479910 0.133332
0.826701 0.478224 0.147452
0.852195 0.476537 0.160796
0.871333 0.475397 0.172377
0.892829 0.474844 0.184455
0.907367 0.474291 0.196321
0.920214 0.473738 0.210710
0.932427 0.473185 0.224376
0.936880 0.472633 0.238929
0.936880 0.471840 0.254000
0.936880 0.471044 0.267356
0.936880 0.470249 0.281241
0.936880 0.469453 0.295472
0.936880 0.468658 0.311893
0.936880 0.467773 0.328399
0.936880 0.466797 0.343495
0.936880 0.465821 0.358482
0.045898 0.542706 0.009804
0.096675 0.541638 0.009804
0.145413 0.540562 0.009804
0.195735 0.539486 0.009804
0.248960 0.538410 0.009804
0.311923 0.537334 0.014031
0.376762 0.536404 0.015952
0.432702 0.535642 0.018625
0.486255 0.534881 0.022692
0.532625 0.534119 0.030671
0.571040 0.533358 0.042253
0.622814 0.532597 0.056211
0.673620 0.531818 0.071649
0.710600 0.531040 0.085269
0.746074 0.530261 0.100976
0.778212 0.529482 0.114759
0.803493 0.528703 0.128294
0.829859 0.527834 0.142342
0.855409 0.526865 0.154728
0.874283 0.525896 0.167765
0.895608 0.524927 0.180216
0.908715 0.523958 0.191380
0.922918 0.522988 0.205533
0.935286 0.521941 0.219919
0.936880 0.520891 0.233629
0.936880 0.519842 0.248534
0.936880 0.518793 0.262572
0.936880 0.517743 0.275005
0.936880 0.516833 0.289569
0.936880 0.516067 0.305141
0.936880 0.515302 0.322506
0.936880 0.514536 0.336665
0.936880 0.513771 0.351391
0.050570 0.588569 0.009804
0.103235 0.587669 0.009804
0.150927 0.586768 0.009804
0.202303 0.585868 0.009804
0.255754 0.585068 0.009804
0.318138 0.584388 0.011600
0.383686 0.583708 0.015056
0.438947 0.583028 0.016860
0.491832 0.582348 0.020588
0.537059 0.581668 0.027496
0.577019 0.580673 0.037407
0.629420 0.579666 0.050400
0.676318 0.578659 0.065644
0.713996 0.577652 0.079196
0.750074 0.576645 0.095330
0.782796 0.575817 0.110159
0.805636 0.575191 0.123122
0.833576 0.574566 0.136310
0.858203 0.573941 0.149874
0.877975 0.573315 0.163458
0.897581 0.572690 0.175398
0.910870 0.571501 0.186758
0.924203 0.570299 0.198745
0.936154 0.569096 0.213637
0.936880 0.567893 0.228006
0.936880 0.566690 0.241973
0.936880 0.565739 0.257186
0.936880 0.565057 0.269979
0.936880 0.564375 0.284171
0.936880 0.563693 0.297824
0.936880 0.563011 0.315357
0.936880 0.562329 0.330271
0.936880 0.561582 0.346336
0.056975 0.635883 0.009804
0.109038 0.634926 0.009804
0.156260 0.634071 0.009804
0.206588 0.633340 0.009804
0.264032 0.632610 0.009804
0.327201 0.631879 0.009804
0.390516 0.631148 0.014994
0.444921 0.630417 0.015952
0.497722 0.629628 0.019555
0.542774 0.628837 0.024315
0.580440 0.628046 0.032739
0.635224 0.627255 0.044956
0.680833 0.626464 0.059335
0.718567 0.625529 0.074566
0.754583 0.624427 0.089053
0.786308 0.623326 0.104316
0.809210 0.622224 0.117547
0.836206 0.621122 0.130918
0.860728 0.620020 0.145375
0.879836 0.618829 0.157991
0.898946 0.617636 0.169746
0.910870 0.616442 0.182506
0.925443 0.615249 0.194118
0.936880 0.614055 0.208645
0.936880 0.613052 0.222095
0.936880 0.612258 0.236342
0.936880 0.611465 0.251456
0.936880 0.610671 0.265083
0.936880 0.609877 0.278247
0.936880 0.609083 0.292996
0.936880 0.608183 0.309076
0.936880 0.607281 0.325780
0.936880 0.606379 0.341019
0.063303 0.680590 0.009804
0.114879 0.679884 0.009804
0.162184 0.679178 0.009804
0.214706 0.678471 0.009804
0.270018 0.677765 0.009804
0.335138 0.677058 0.009804
0.397199 0.676066 0.012966
0.450382 0.675059 0.015545
0.503475 0.674051 0.017815
0.546250 0.673044 0.021656
0.586718 0.672037 0.029038
0.641159 0.671080 0.040005
0.685451 0.670184 0.053503
0.722992 0.669289 0.069059
0.758712 0.668393 0.082442
0.789573 0.667497 0.098127
0.810435 0.666601 0.112717
0.840060 0.665876 0.125932
0.863177 0.665158 0.139435
0.882709 0.664439 0.152413
0.899504 0.663721 0.166050
0.913090 0.663002 0.177990
0.928745 0.662310 0.189083
0.936880 0.661649 0.202102
0.936880 0.660987 0.217270
0.936880 0.660326 0.231331
0.936880 0.659665 0.245495
0.936880 0.659003 0.260385
0.936880 0.658161 0.272660
0.936880 0.657314 0.286824
0.936880 0.656467 0.301260
0.936880 0.655620 0.319264
0.936880 0.654773 0.332697
0.068761 0.713811 0.009804
0.121142 0.713310 0.009804
0.167652 0.712809 0.009804
0.219804 0.712308 0.009804
0.277801 0.711806 0.009804
0.342609 0.711304 0.009804
0.404717 0.710803 0.010358
0.455868 0.710301 0.014994
0.507892 0.709799 0.016028
0.550511 0.709281 0.020124
0.594034 0.708744 0.026099
0.648613 0.708206 0.035132
0.689570 0.707668 0.047824
0.726766 0.707131 0.062575
0.761483 0.706593 0.077031
0.793213 0.705866 0.092873
0.814512 0.705131 0.107462
0.840993 0.704396 0.120597
0.865230 0.703661 0.133718
0.884953 0.702925 0.147761
0.902182 0.702306 0.161141
0.915560 0.701822 0.172768
0.929258 0.701339 0.184744
0.936880 0.700855 0.196635
0.936880 0.700371 0.211017
0.936880 0.699887 0.224846
0.936880 0.699332 0.239314
0.936880 0.698774 0.254402
0.936880 0.698217 0.267695
0.936880 0.697660 0.281686
0.936880 0.697103 0.295776
0.936880 0.696424 0.312311
0.936880 0.695613 0.328642
0.074698 0.746437 0.009804
0.126146 0.746038 0.009804
0.173283 0.745220 0.009804
0.226613 0.744374 0.009804
0.285069 0.743528 0.009804
0.349157 0.742682 0.009804
0.411332 0.741836 0.009804
0.461606 0.741199 0.014189
0.515373 0.740824 0.015952
0.555113 0.740450 0.018745
0.599421 0.740075 0.022845
0.653369 0.739700 0.030939
0.694192 0.739325 0.042588
0.730040 0.738801 0.056615
0.765856 0.738269 0.072034
0.796553 0.737737 0.085727
0.815852 0.737205 0.101408
0.846633 0.736673 0.115062
0.867158 0.736077 0.128634
0.886231 0.735405 0.142774
0.903233 0.734733 0.155150
0.915998 0.734061 0.168019
0.930934 0.733389 0.180546
0.936880 0.732717 0.191734
0.936880 0.731983 0.206043
0.936880 0.731246 0.220200
0.936880 0.730510 0.233971
0.936880 0.729773 0.248912
0.936880 0.729037 0.262897
0.936880 0.728373 0.275353
0.936880 0.727792 0.290012
0.936880 0.727210 0.305717
0.936880 0.726629 0.322929
0.081853 0.772351 0.009804
0.132316 0.771932 0.009804
0.179771 0.771513 0.009804
0.233493 0.771093 0.009804
0.292346 0.770674 0.009804
0.358612 0.770299 0.009804
0.417639 0.769982 0.009804
0.469117 0.769664 0.011785
0.519668 0.769347 0.015119
0.559022 0.769029 0.016984
0.605797 0.768712 0.020656
0.659281 0.768230 0.027696
0.698082 0.767739 0.037745
0.734812 0.767248 0.050801
0.770009 0.766757 0.066100
0.798280 0.766266 0.079616
0.819202 0.765837 0.095692
0.849158 0.765485 0.110560
0.868929 0.765132 0.123486
0.889825 0.764780 0.136695
0.906637 0.764428 0.150202
0.919648 0.764075 0.163802
0.931435 0.763673 0.175764
0.936880 0.763268 0.187059
0.936880 0.762864 0.199058
0.936880 0.762459 0.214107
0.936880 0.762054 0.228475
0.936880 0.761513 0.242429
0.936880 0.760812 0.257600
0.936880 0.760112 0.270318
0.936880 0.759412 0.284514
0.936880 0.758711 0.298128
0.936880 0.758011 0.315862
0.088191 0.802866 0.009804
0.136860 0.802538 0.009804
0.186034 0.802209 0.009804
0.239442 0.801673 0.009804
0.299161 0.800863 0.009804
0.365470 0.800053 0.009804
0.423542 0.799242 0.009804
0.475638 0.798432 0.009804
0.523025 0.797622 0.014994
0.562579 0.796900 0.015952
0.614521 0.796184 0.019661
0.662781 0.795468 0.024545
0.702840 0.794752 0.033007
0.740441 0.794036 0.045327
0.772839 0.793463 0.059740
0.799983 0.793071 0.074885
0.824208 0.792678 0.089547
0.850140 0.792285 0.104748
0.870181 0.791893 0.117941
0.891654 0.791500 0.131258
0.907367 0.791106 0.145684
0.919648 0.790712 0.158413
0.932096 0.790318 0.170137
0.936880 0.789924 0.182796
0.936880 0.789529 0.194472
0.936880 0.788871 0.208952
0.936880 0.787897 0.222377
0.936880 0.786923 0.236727
0.936880 0.785950 0.251834
0.936880 0.784976 0.265412
0.936880 0.784002 0.278692
0.936880 0.783757 0.293440
0.936880 0.783540 0.309494
0.093516 0.827414 0.009804
0.142324 0.826879 0.009804
0.191446 0.826576 0.009804
0.245587 0.826273 0.009804
0.306795 0.825970 0.009804
0.372142 0.825667 0.009804
0.428955 0.825364 0.009804
0.483249 0.824778 0.009804
0.529045 0.824171 0.013124
0.568319 0.823565 0.015608
0.619725 0.822958 0.017936
0.669895 0.822351 0.021810
0.707967 0.821743 0.029237
0.744366 0.821132 0.040339
0.775717 0.820521 0.053905
0.802988 0.819910 0.069444
0.827709 0.819300 0.082862
0.854059 0.818689 0.098500
0.872208 0.818594 0.113021
0.893823 0.818529 0.126296
0.907653 0.818465 0.139867
0.921070 0.818401 0.152741
0.932953 0.818336 0.166305
0.936880 0.818006 0.178321
0.936880 0.817351 0.189384
0.936880 0.816696 0.202612
0.936880 0.816041 0.217740
0.936880 0.815386 0.231673
0.936880 0.814731 0.245951
0.936880 0.814338 0.260711
0.936880 0.813956 0.273008
0.936880 0.813575 0.287167
0.936880 0.813194 0.301837
0.098595 0.852860 0.009804
0.147111 0.852305 0.009804
0.198004 0.851750 0.009804
0.250829 0.851195 0.009804
0.314431 0.850640 0.009804
0.379049 0.850414 0.009804
0.434908 0.850215 0.009804
0.488107 0.850017 0.009804
0.534547 0.849818 0.010542
0.573102 0.849619 0.014994
0.625145 0.849200 0.016152
0.674790 0.848492 0.020193
0.711590 0.847783 0.026329
0.747212 0.847075 0.035470
0.780229 0.846367 0.048195
0.803825 0.845658 0.063031
0.831472 0.845259 0.077350
0.855856 0.844881 0.093257
0.875946 0.844502 0.107862
0.896491 0.844123 0.120991
0.909613 0.843745 0.134103
0.923929 0.843305 0.148070
0.935656 0.842789 0.161485
0.936880 0.842273 0.173158
0.936880 0.841756 0.185035
0.936880 0.841240 0.196948
0.936880 0.840724 0.211324
0.936880 0.840457 0.225315
0.936880 0.840203 0.239698
0.936880 0.839949 0.254816
0.936880 0.839696 0.268035
0.936880 0.839442 0.282131
0.936880 0.839094 0.296080
0.105229 0.873987 0.009804
0.153119 0.873616 0.009804
0.203795 0.873244 0.009804
0.259130 0.873004 0.009804
0.320805 0.872777 0.009804
0.386250 0.872549 0.009804
0.440995 0.872321 0.009804
0.493915 0.872093 0.009804
0.538423 0.871811 0.009804
0.577956 0.871455 0.014348
0.631568 0.871099 0.015952
0.677838 0.870743 0.018866
0.715365 0.870387 0.022999
0.751627 0.870031 0.031206
0.783560 0.869583 0.042922
0.806915 0.869129 0.057019
0.834045 0.868674 0.072419
0.859168 0.868220 0.086221
0.877975 0.867766 0.101840
0.898083 0.867367 0.115365
0.910870 0.867041 0.128973
0.924337 0.866714 0.143206
0.936505 0.866387 0.155573
0.936880 0.866061 0.168274
0.936880 0.865734 0.180847
0.936880 0.865405 0.192089
0.936880 0.865075 0.206553
0.936880 0.864746 0.220482
0.936880 0.864416 0.234312
0.936880 0.864086 0.249290
0.936880 0.863722 0.263222
0.936880 0.863314 0.275702
0.936880 0.862907 0.290456
0.111010 0.892036 0.009804
0.157803 0.891889 0.009804
0.209607 0.891738 0.009804
0.266184 0.891587 0.009804
0.329847 0.891436 0.009804
0.392468 0.891286 0.009804
0.446768 0.890990 0.009804
0.499557 0.890493 0.009804
0.544175 0.889996 0.009804
0.582179 0.889499 0.011969
0.637183 0.889001 0.015182
0.682407 0.888504 0.017107
0.720166 0.888341 0.020775
0.755981 0.888204 0.027895
0.787767 0.888068 0.038083
0.809210 0.887932 0.051203
0.837558 0.887795 0.066556
0.861539 0.887525 0.080036
0.881345 0.887080 0.096054
0.898979 0.886634 0.110961
0.910870 0.886188 0.123849
0.926552 0.885743 0.137081
0.936880 0.885297 0.150531
0.936880 0.884890 0.164146
0.936880 0.884485 0.176095
0.936880 0.884080 0.187360
0.936880 0.883676 0.199372
0.936880 0.883271 0.214577
0.936880 0.882953 0.228945
0.936880 0.882745 0.242884
0.936880 0.882536 0.258014
0.936880 0.882327 0.270663
0.936880 0.882119 0.284857
0.116884 0.905587 0.009804
0.164156 0.905504 0.009804
0.216675 0.905422 0.009804
0.272343 0.905339 0.009804
0.338032 0.905197 0.009804
0.399719 0.904971 0.009804
0.452384 0.904744 0.009804
0.505480 0.904517 0.009804
0.547613 0.904291 0.009804
0.589324 0.904064 0.009804
0.643930 0.903836 0.014994
0.687007 0.903608 0.015952
0.724333 0.903379 0.019730
0.760121 0.903151 0.024776
0.790725 0.902923 0.033274
0.811983 0.902725 0.045698
0.840779 0.902569 0.060144
0.864085 0.902413 0.075204
0.883377 0.902256 0.090042
0.900718 0.902100 0.105165
0.914409 0.901944 0.118336
0.928745 0.901557 0.131597
0.936880 0.901153 0.145993
0.936880 0.900749 0.158835
0.936880 0.900345 0.170528
0.936880 0.899942 0.183085
0.936880 0.899571 0.194826
0.936880 0.899244 0.209259
0.936880 0.898917 0.222659
0.936880 0.898590 0.237111
0.936880 0.898263 0.252212
0.936880 0.897936 0.265751
0.936880 0.897658 0.279137
0.123396 0.926980 0.009804
0.169476 0.926709 0.009804
0.221208 0.926414 0.009804
0.280304 0.926083 0.009804
0.344513 0.925752 0.009804
0.407008 0.925421 0.009804
0.457407 0.925090 0.009804
0.510030 0.924759 0.009804
0.552220 0.924469 0.009804
0.596151 0.924183 0.009804
0.650040 0.923898 0.013282
0.690932 0.923612 0.015671
0.727691 0.923326 0.018056
0.762019 0.922974 0.021964
0.794619 0.922532 0.029437
0.815688 0.922089 0.040673
0.843074 0.921647 0.054306
0.865580 0.921204 0.069829
0.885338 0.920761 0.083282
0.902440 0.920646 0.098932
0.915779 0.920557 0.113324
0.929933 0.920468 0.126660
0.936880 0.920378 0.140299
0.936880 0.920289 0.153070
0.936880 0.919791 0.166560
0.936880 0.918753 0.178651
0.936880 0.917716 0.189705
0.936880 0.916679 0.203122
0.936880 0.915641 0.218210
0.936880 0.914604 0.232014
0.936880 0.914159 0.246406
0.936880 0.913754 0.261036
0.936880 0.913349 0.273357
0.127965 0.935924 0.009804
0.175517 0.935512 0.009804
0.229296 0.935100 0.009804
0.287400 0.934687 0.009804
0.351794 0.934275 0.009804
0.413675 0.933862 0.009804
0.464009 0.933681 0.009804
0.517105 0.933523 0.009804
0.556465 0.933366 0.009804
0.601408 0.933208 0.009804
0.655329 0.933051 0.010727
0.695566 0.932958 0.014994
0.731605 0.932958 0.016275
0.767468 0.932958 0.020262
0.796774 0.932958 0.026553
0.816385 0.932958 0.035808
0.847670 0.932958 0.048566
0.867982 0.932824 0.063487
0.887583 0.932677 0.077669
0.903700 0.932531 0.093619
0.917584 0.932384 0.108263
0.931362 0.932238 0.121386
0.936880 0.931982 0.134488
0.936880 0.931579 0.148379
0.936880 0.931175 0.161829
0.936880 0.930772 0.173549
0.936880 0.930369 0.185335
0.936880 0.929965 0.197262
0.936880 0.929938 0.211631
0.936880 0.929938 0.225785
0.936880 0.929938 0.240082
0.936880 0.929938 0.255229
0.936880 0.929938 0.268374
0.133759 0.943695 0.009804
0.181922 0.943672 0.009804
0.235504 0.943649 0.009804
0.295106 0.943625 0.009804
0.361251 0.943490 0.009804
0.419212 0.943342 0.009804
0.471510 0.943194 0.009804
0.520042 0.943046 0.009804
0.560292 0.942898 0.009804
0.608929 0.942764 0.009804
0.661200 0.942651 0.009804
0.699616 0.942537 0.014506
0.736494 0.942423 0.015952
0.770965 0.942310 0.018986
0.799410 0.942196 0.023223
0.820939 0.942033 0.031474
0.849669 0.941865 0.043256
0.869358 0.941697 0.057423
0.890706 0.941529 0.072804
0.907367 0.941361 0.086716
0.919648 0.941228 0.102272
0.931532 0.941145 0.115681
0.936880 0.941062 0.129313
0.936880 0.940979 0.143638
0.936880 0.940896 0.155995
0.936880 0.940813 0.168529
0.936880 0.940668 0.181136
0.936880 0.940518 0.192443
