app/public/color-luts/stageAB.cube
TITLE "stage_ab"
LUT_3D_SIZE 9
DOMAIN_MIN 0.0 0.0 0.0
DOMAIN_MAX 1.0 1.0 1.0
0.013502 0.030784 0.008490
0.193012 0.030693 0.021549
0.452437 0.037225 0.058636
0.657977 0.047358 0.102684
0.833494 0.058025 0.142979
0.935610 0.068797 0.190921
0.995868 0.080110 0.244412
0.990314 0.092370 0.309119
0.979482 0.104840 0.372119
0.032245 0.195193 0.000000
0.203433 0.184332 0.019372
0.456664 0.170037 0.052115
0.659856 0.160334 0.103958
0.820949 0.157073 0.150460
0.918544 0.156014 0.196622
0.976657 0.156391 0.249301
0.969413 0.158659 0.309684
0.961840 0.163030 0.372450
0.054048 0.471723 0.000000
0.221153 0.456018 0.010567
0.461411 0.436439 0.037966
0.664114 0.406433 0.090466
0.811504 0.389555 0.143348
0.907329 0.377666 0.189227
0.955539 0.367968 0.244480
0.951981 0.361858 0.301734
0.947782 0.356851 0.364731
0.071122 0.702502 0.000000
0.238908 0.693001 0.000000
0.474016 0.673825 0.026282
0.670735 0.633417 0.069883
0.808233 0.605074 0.124024
0.904740 0.588282 0.173960
0.945500 0.573212 0.224546
0.944468 0.562255 0.279449
0.942648 0.554410 0.341355
0.093956 0.895274 0.000000
0.264813 0.886361 0.000000
0.488742 0.871449 0.019375
0.676909 0.838091 0.048884
0.809585 0.797131 0.102499
0.902747 0.772957 0.153503
0.939094 0.755444 0.201868
0.940067 0.740483 0.256525
0.940206 0.729132 0.315505
0.114386 1.000000 0.000000
0.291094 1.000000 0.000000
0.500139 1.000000 0.013848
0.684283 0.985789 0.035730
0.817750 0.935742 0.080177
0.903700 0.903910 0.132305
0.934910 0.882955 0.179751
0.937296 0.866409 0.231428
0.938750 0.853845 0.286061
0.134470 1.000000 0.000000
0.318093 1.000000 0.000000
0.514187 1.000000 0.011753
0.693023 1.000000 0.029885
0.821591 1.000000 0.060591
0.905007 1.000000 0.112260
0.931525 0.977037 0.160552
0.934985 0.955449 0.208706
0.937442 0.939274 0.261537
0.149937 1.000000 0.000000
0.345349 1.000000 0.000000
0.530441 1.000000 0.012361
0.707693 1.000000 0.029061
0.826545 1.000000 0.046264
0.907088 1.000000 0.092542
0.928985 1.000000 0.141403
0.932984 0.997709 0.186056
0.936261 0.981278 0.240353
0.166531 1.000000 0.000000
0.370959 1.000000 0.000000
0.551945 1.000000 0.014470
0.720024 1.000000 0.028673
0.831609 1.000000 0.039917
0.909914 1.000000 0.074428
0.926694 1.000000 0.122191
0.931636 1.000000 0.169042
0.935114 0.987211 0.218702
0.007135 0.055557 0.181716
0.163178 0.058936 0.224957
0.415591 0.069586 0.264310
0.615585 0.083495 0.312979
0.792084 0.098113 0.363423
0.894989 0.112336 0.418416
0.957378 0.124913 0.469231
0.955545 0.135739 0.518661
0.947427 0.147099 0.570291
0.048972 0.208995 0.135323
0.200231 0.196147 0.195986
0.436562 0.192052 0.252684
0.632800 0.191697 0.306173
0.792065 0.194564 0.363754
0.888991 0.198373 0.421115
0.945624 0.202475 0.476435
0.941200 0.206139 0.525734
0.935345 0.211119 0.578693
0.086376 0.456280 0.085424
0.235805 0.432828 0.162279
0.461694 0.420337 0.224773
0.654364 0.412858 0.282394
0.800288 0.407763 0.344525
0.889713 0.405024 0.406543
0.939502 0.402874 0.462890
0.935754 0.401220 0.518022
0.932414 0.399291 0.565278
0.106459 0.673341 0.041202
0.266651 0.641333 0.129019
0.490634 0.622351 0.194751
0.676337 0.608336 0.256521
0.806099 0.598496 0.318878
0.898896 0.591665 0.378361
0.938604 0.586865 0.439330
0.936292 0.581563 0.497081
0.934090 0.578118 0.546571
0.125724 0.853538 0.005626
0.296790 0.816488 0.098439
0.512661 0.793595 0.166217
0.691872 0.776674 0.228421
0.817188 0.764898 0.287273
0.904914 0.753518 0.353116
0.939145 0.745271 0.412489
0.938101 0.739380 0.471168
0.936889 0.736222 0.523328
0.140202 0.987155 0.000000
0.322886 0.942342 0.072889
0.532908 0.915903 0.143314
0.709385 0.896943 0.203440
0.829583 0.881583 0.261633
0.910331 0.868355 0.324611
0.939728 0.858488 0.386206
0.939623 0.851418 0.446050
0.939143 0.846147 0.500158
0.149721 1.000000 0.000000
0.347750 1.000000 0.051008
0.548804 0.998036 0.121673
0.723692 0.978862 0.178707
0.841150 0.961865 0.239240
0.916533 0.948679 0.298195
0.939919 0.938265 0.359931
0.940574 0.930805 0.420318
0.940710 0.924929 0.476474
0.157515 1.000000 0.000000
0.368122 1.000000 0.032509
0.562138 1.000000 0.102081
0.739303 1.000000 0.161541
0.850186 0.987150 0.217091
0.920733 0.973531 0.273115
0.939530 0.962120 0.334652
0.940598 0.953729 0.396402
0.941049 0.948120 0.452416
0.168713 1.000000 0.000000
0.385005 1.000000 0.016112
0.577686 1.000000 0.084573
0.752424 1.000000 0.144252
0.860059 0.993484 0.196280
0.928464 0.978184 0.252675
0.938959 0.965878 0.312209
0.940221 0.957019 0.369847
0.940922 0.950139 0.430272
0.000000 0.109560 0.416579
0.131939 0.111229 0.463346
0.378147 0.119838 0.499032
0.578586 0.130464 0.532437
0.755768 0.142557 0.569938
0.863481 0.153342 0.606559
0.928440 0.164278 0.647501
0.929260 0.173880 0.688810
0.923036 0.183444 0.730264
0.057077 0.260557 0.353864
0.189167 0.246593 0.425865
0.416134 0.241276 0.479374
0.607146 0.241144 0.528545
0.766291 0.242509 0.568889
0.863736 0.245374 0.612420
0.924077 0.248858 0.656978
0.921232 0.252507 0.701048
0.916887 0.256374 0.742212
0.104341 0.477254 0.298046
0.236752 0.456161 0.378280
0.453751 0.446478 0.446892
0.641504 0.440846 0.505016
0.785337 0.438170 0.552306
0.876296 0.438191 0.601787
0.926972 0.438643 0.644067
0.923693 0.439406 0.690356
0.920718 0.439596 0.731071
0.134732 0.679506 0.242025
0.277227 0.652103 0.339721
0.491374 0.636280 0.411822
0.670206 0.627295 0.475651
0.800459 0.622183 0.528462
0.889731 0.618532 0.576828
0.931175 0.615649 0.622883
0.928809 0.613266 0.671856
0.926666 0.610717 0.713239
0.159429 0.822237 0.206274
0.310316 0.795139 0.302828
0.519534 0.778374 0.380870
0.692292 0.768655 0.446756
0.813711 0.762800 0.503633
0.900524 0.759108 0.552040
0.935220 0.756259 0.601900
0.933771 0.754966 0.649275
0.932361 0.754290 0.691488
0.181348 0.931914 0.178022
0.340676 0.905455 0.269990
0.542567 0.887996 0.349300
0.712917 0.876503 0.418618
0.830114 0.869501 0.478096
0.910085 0.864472 0.529406
0.938441 0.860851 0.580192
0.937578 0.858253 0.625512
0.936580 0.856687 0.670690
0.197677 1.000000 0.152034
0.369434 0.974061 0.241689
0.562768 0.956856 0.320767
0.730853 0.944148 0.391906
0.844777 0.935333 0.452283
0.916048 0.929730 0.508483
0.940511 0.926908 0.555196
0.940037 0.925003 0.602687
0.939385 0.923367 0.649317
0.209158 1.000000 0.132550
0.394650 0.988542 0.221710
0.577120 0.971582 0.298090
0.746696 0.959709 0.365006
0.855805 0.951202 0.430437
0.924220 0.945577 0.488423
0.941015 0.942440 0.536773
0.940661 0.940324 0.587333
0.940194 0.939159 0.630468
0.219942 1.000000 0.114845
0.416290 0.992061 0.202273
0.593294 0.975608 0.271889
0.761670 0.961995 0.345552
0.865986 0.953363 0.406991
0.929865 0.947035 0.467434
0.941085 0.943429 0.518448
0.940830 0.941075 0.566937
0.940413 0.939594 0.611885
0.000000 0.172624 0.630340
0.114129 0.163990 0.662406
0.351449 0.165153 0.687086
0.549342 0.171707 0.713681
0.728610 0.179503 0.737794
0.839075 0.186836 0.760046
0.906486 0.193354 0.779978
0.911085 0.201408 0.810164
0.907190 0.208309 0.837355
0.062925 0.325765 0.571008
0.180716 0.306325 0.627622
0.401760 0.296831 0.665769
0.590448 0.294976 0.705250
0.748171 0.294592 0.738149
0.845704 0.294240 0.770711
0.907448 0.294550 0.792567
0.908861 0.296029 0.824192
0.905709 0.296843 0.854644
0.113883 0.523764 0.517529
0.234851 0.498411 0.584706
0.444992 0.484186 0.634278
0.627938 0.480279 0.682399
0.773019 0.477819 0.721567
0.864766 0.476430 0.757885
0.917752 0.474941 0.785865
0.915706 0.475025 0.814040
0.913249 0.474344 0.846757
0.150817 0.706729 0.470825
0.279247 0.679744 0.544317
0.485592 0.665627 0.604294
0.660621 0.658474 0.654727
0.792609 0.654259 0.697688
0.881754 0.651049 0.737308
0.925052 0.648811 0.771880
0.923708 0.647365 0.797135
0.922055 0.647041 0.828352
0.176800 0.832109 0.435127
0.315094 0.806488 0.514312
0.517596 0.792611 0.577130
0.687840 0.785182 0.627947
0.808301 0.779310 0.674802
0.894917 0.775402 0.714997
0.930924 0.774940 0.754980
0.929933 0.773758 0.780544
0.928723 0.772649 0.810642
0.200131 0.927048 0.403162
0.348377 0.903903 0.487285
0.542810 0.889895 0.548069
0.709883 0.881296 0.602309
0.825434 0.876133 0.652186
0.907738 0.873397 0.696954
0.935579 0.871731 0.736925
0.934684 0.870556 0.768594
0.933872 0.869742 0.795725
0.217780 0.982507 0.378711
0.376901 0.959818 0.463918
0.565941 0.946748 0.526478
0.729523 0.939041 0.584081
0.841661 0.934540 0.630681
0.913936 0.931671 0.677808
0.938513 0.930458 0.717853
0.937733 0.929615 0.754677
0.937144 0.928901 0.779597
0.229865 0.985799 0.356935
0.402552 0.964393 0.444704
0.581229 0.952947 0.507687
0.745180 0.945540 0.564593
0.855005 0.941441 0.611537
0.923005 0.939016 0.661204
0.939105 0.938346 0.703429
0.938422 0.938428 0.740609
0.937838 0.938699 0.769493
0.241381 0.984832 0.338759
0.425497 0.964167 0.423724
0.598386 0.953120 0.489724
0.761149 0.945876 0.543237
0.864634 0.941637 0.595183
0.927674 0.939174 0.643377
0.939398 0.938419 0.685948
0.938713 0.938357 0.725317
0.938035 0.938591 0.760011
0.000000 0.229137 0.802833
0.104271 0.213498 0.824402
0.334573 0.205796 0.827190
0.529877 0.206708 0.841508
0.711157 0.209595 0.855846
0.822055 0.212686 0.868451
0.891402 0.215941 0.882007
0.898010 0.219270 0.898737
0.896298 0.221782 0.911441
0.067372 0.381795 0.746278
0.174623 0.356751 0.787156
0.390877 0.344009 0.809414
0.577856 0.338762 0.830280
0.736882 0.337306 0.855829
0.835562 0.336541 0.875529
0.898161 0.335440 0.893840
0.901469 0.335569 0.910939
0.899854 0.335042 0.926567
0.120791 0.568749 0.692861
0.230922 0.542216 0.747745
0.437812 0.527441 0.785379
0.618242 0.519474 0.809326
0.765275 0.515905 0.837846
0.857321 0.513686 0.864369
0.912162 0.511602 0.884559
0.910627 0.510427 0.904863
0.909336 0.509233 0.921503
0.160505 0.742148 0.648261
0.278685 0.713854 0.710924
0.480045 0.699370 0.758778
0.656232 0.690344 0.786912
0.788503 0.684996 0.816715
0.876781 0.681854 0.847718
0.921386 0.679766 0.871232
0.920199 0.677728 0.891737
0.919142 0.675381 0.908992
0.185670 0.857209 0.615848
0.315420 0.829738 0.685144
0.513958 0.814221 0.736345
0.682522 0.805255 0.771035
0.804852 0.800866 0.800011
0.891475 0.798542 0.832611
0.928081 0.796825 0.857351
0.927132 0.794733 0.878104
0.926255 0.792974 0.896865
0.208198 0.938586 0.588843
0.347734 0.913861 0.660673
0.542658 0.900260 0.713516
0.705580 0.892162 0.755116
0.819726 0.887395 0.782008
0.903173 0.885409 0.813323
0.933201 0.884950 0.843513
0.932446 0.884355 0.866444
0.931754 0.883502 0.886115
0.225944 0.984277 0.566357
0.375939 0.961732 0.640658
0.563453 0.949407 0.694996
0.725485 0.942749 0.737891
0.838187 0.938455 0.768795
0.911860 0.936402 0.799000
0.936244 0.936240 0.831685
0.935616 0.936296 0.855597
0.935045 0.936472 0.876575
0.237677 0.982177 0.552729
0.400991 0.961311 0.624450
0.579796 0.950433 0.678182
0.740800 0.944095 0.723320
0.850978 0.940941 0.759673
0.917186 0.939475 0.786827
0.936765 0.939527 0.817786
0.936073 0.940226 0.846476
0.935541 0.940833 0.867585
0.249359 0.979297 0.538361
0.425491 0.959348 0.607388
0.595987 0.949585 0.661601
0.757124 0.943417 0.707081
0.860016 0.940542 0.747468
0.925134 0.939090 0.774793
0.937060 0.939264 0.805021
0.936338 0.939945 0.835664
0.935735 0.940606 0.859980
0.000000 0.273446 0.920348
0.099704 0.252120 0.929936
0.323902 0.241224 0.929912
0.517642 0.237380 0.931118
0.700191 0.235671 0.931313
0.812259 0.235929 0.936393
0.880973 0.235930 0.941009
0.892093 0.236197 0.947234
0.890797 0.237251 0.956949
0.075254 0.433074 0.862765
0.171883 0.403335 0.895128
0.383870 0.387053 0.909597
0.566542 0.378456 0.921743
0.730088 0.372881 0.931118
0.830127 0.369547 0.941365
0.893650 0.366871 0.949020
0.898364 0.365643 0.957835
0.897492 0.363471 0.965390
0.127415 0.610870 0.815006
0.228687 0.580153 0.860068
0.432328 0.563292 0.886515
0.611104 0.554543 0.904432
0.758490 0.548708 0.918160
0.851268 0.544514 0.930915
0.909217 0.541094 0.943848
0.908588 0.538980 0.954343
0.908021 0.536955 0.960538
0.166549 0.771133 0.777916
0.276740 0.742141 0.830416
0.473954 0.725397 0.862433
0.649727 0.716318 0.884115
0.783861 0.710391 0.903367
0.872199 0.706730 0.918670
0.919478 0.704836 0.933865
0.918904 0.703446 0.943178
0.918260 0.701411 0.952915
0.190837 0.880754 0.748515
0.311724 0.851337 0.802916
0.509436 0.834423 0.843630
0.678115 0.824992 0.870390
0.800069 0.819407 0.890545
0.888517 0.817404 0.907715
0.926495 0.815223 0.921636
0.925841 0.813857 0.935332
0.925371 0.812971 0.945124
0.212032 0.954132 0.730027
0.345570 0.927507 0.784932
0.538464 0.912622 0.828230
0.701339 0.904655 0.856051
0.816368 0.900497 0.878105
0.899355 0.897674 0.896796
0.931588 0.895806 0.912241
0.931066 0.895152 0.926353
0.930657 0.894493 0.936951
0.228863 0.991511 0.719608
0.373860 0.967252 0.769926
0.560194 0.954268 0.811197
0.721545 0.947431 0.844553
0.833607 0.943970 0.867251
0.908265 0.942245 0.887066
0.934550 0.941829 0.904447
0.934110 0.941886 0.919321
0.933755 0.941466 0.930099
0.240867 0.986766 0.711053
0.398084 0.964443 0.759071
0.576112 0.952982 0.799529
0.736751 0.946490 0.834317
0.844543 0.943373 0.860026
0.914847 0.941842 0.880829
0.934750 0.941826 0.897624
0.934360 0.942349 0.911903
0.933961 0.942906 0.926258
0.252329 0.983149 0.700991
0.422356 0.962007 0.751074
0.592025 0.951785 0.788250
0.753378 0.945544 0.824137
0.857111 0.942686 0.850785
0.920559 0.941356 0.870733
0.934920 0.941603 0.891261
0.934499 0.942161 0.906866
0.934060 0.942767 0.922741
0.008025 0.308741 0.992700
0.100033 0.283914 0.994801
0.318846 0.268917 0.985952
0.512990 0.262569 0.979526
0.693849 0.257988 0.972685
0.807607 0.255425 0.969686
0.877520 0.253099 0.963981
0.891045 0.250977 0.962476
0.890975 0.249028 0.961992
0.084478 0.479273 0.941272
0.172212 0.446021 0.959410
0.380675 0.426666 0.968024
0.560824 0.416117 0.971452
0.726431 0.408304 0.970372
0.828076 0.404149 0.975782
0.893158 0.399386 0.972660
0.898702 0.395401 0.972350
0.898445 0.391021 0.972310
0.134238 0.649665 0.901212
0.228455 0.615204 0.930805
0.428666 0.596586 0.948705
0.606128 0.586149 0.955703
0.756044 0.578139 0.961659
0.849971 0.572443 0.967813
0.908240 0.569161 0.969937
0.909080 0.566082 0.969998
0.908863 0.562600 0.970099
0.171822 0.799501 0.870251
0.273883 0.767652 0.906230
0.469025 0.748462 0.927643
0.644753 0.738156 0.941718
0.782205 0.731838 0.950972
0.869177 0.727390 0.956030
0.919048 0.724120 0.964042
0.918873 0.721370 0.964165
0.918754 0.719496 0.964248
0.195396 0.904993 0.845406
0.310016 0.872379 0.887770
0.506029 0.854802 0.912647
0.675821 0.845013 0.929360
0.798105 0.838624 0.940339
0.886250 0.833633 0.948074
0.925965 0.831688 0.958263
0.925791 0.829375 0.958974
0.925652 0.827209 0.959085
0.215734 0.976567 0.830131
0.342827 0.944704 0.872670
0.533328 0.926259 0.900982
0.697318 0.916822 0.919481
0.814267 0.912109 0.931615
0.897775 0.908182 0.941602
0.930908 0.905508 0.949165
0.930590 0.903710 0.955015
0.930566 0.903339 0.955036
0.229669 0.997779 0.822518
0.369324 0.972114 0.865272
0.555511 0.957803 0.892119
0.717452 0.950076 0.909773
0.829482 0.946302 0.925820
0.905516 0.944188 0.936488
0.933491 0.943587 0.942778
0.933202 0.944018 0.952759
0.933202 0.944018 0.952759
0.240500 0.992976 0.817377
0.393977 0.969026 0.857499
0.572042 0.956525 0.886399
0.732758 0.949229 0.905439
0.842047 0.945712 0.922330
0.912113 0.943812 0.932326
0.933549 0.943501 0.940746
0.933290 0.943885 0.949729
0.933202 0.944018 0.952759
0.252231 0.988861 0.810075
0.418024 0.966412 0.852286
0.587079 0.955344 0.879689
0.749439 0.948316 0.900184
0.851255 0.945145 0.916184
0.917298 0.943509 0.928792
0.933610 0.943413 0.938644
0.933436 0.943669 0.944701
0.933202 0.944018 0.952759
0.017576 0.336064 1.000000
0.101370 0.309306 1.000000
0.315985 0.290591 1.000000
0.510890 0.281293 0.994120
0.691348 0.275136 0.980671
0.805889 0.271171 0.972130
0.878196 0.268179 0.966620
0.891672 0.266083 0.965348
0.891575 0.263919 0.965008
0.094076 0.517810 0.980433
0.173950 0.482792 0.994849
0.378893 0.460207 0.993046
0.559129 0.448166 0.986645
0.723765 0.439713 0.980047
0.827971 0.433802 0.975631
0.893793 0.429376 0.972740
0.900468 0.425232 0.972441
0.900214 0.420972 0.972446
0.141385 0.683343 0.946063
0.228410 0.646597 0.966580
0.426066 0.624565 0.977323
0.602199 0.612168 0.975545
0.752599 0.604326 0.972749
0.847735 0.598521 0.970648
0.908467 0.593768 0.969204
0.910665 0.591475 0.969215
0.910415 0.587469 0.969343
0.176080 0.824416 0.918660
0.273121 0.789678 0.945604
0.466823 0.770284 0.963033
0.642260 0.758230 0.964891
0.779690 0.750117 0.964482
0.868934 0.745938 0.963723
0.920229 0.742626 0.963203
0.920085 0.740375 0.963307
0.919922 0.737826 0.963423
0.199020 0.925187 0.898681
0.308919 0.890499 0.932214
0.503437 0.870884 0.948976
0.671494 0.859816 0.957380
0.797362 0.853760 0.958087
0.884635 0.849191 0.958146
0.926820 0.845344 0.958147
0.926726 0.843888 0.958223
0.926608 0.842049 0.958319
0.217258 0.990192 0.888916
0.339409 0.959752 0.921837
0.531240 0.941745 0.938210
0.694669 0.932119 0.952071
0.811442 0.926031 0.953451
0.896169 0.922019 0.953971
0.931604 0.919374 0.954147
0.931523 0.918121 0.954217
0.931501 0.917774 0.954236
0.229114 1.000000 0.886584
0.364271 0.975674 0.917524
0.550708 0.960227 0.934846
0.712754 0.952057 0.948436
0.826072 0.947577 0.952117
0.904840 0.944897 0.952641
0.933202 0.944018 0.952759
0.933202 0.944018 0.952759
0.933202 0.944018 0.952759
0.239231 0.998104 0.884490
0.388502 0.972746 0.915355
0.568913 0.958985 0.933382
0.728764 0.951096 0.943410
0.838724 0.947122 0.952222
0.908200 0.944791 0.952657
0.933202 0.944018 0.952759
0.933202 0.944018 0.952759
0.933202 0.944018 0.952759
0.250923 0.993875 0.881375
0.413546 0.970018 0.913181
0.583316 0.957933 0.930085
0.744199 0.950281 0.940327
0.849952 0.946702 0.951798
0.916628 0.944526 0.952695
0.933202 0.944018 0.952759
0.933202 0.944018 0.952759
0.933202 0.944018 0.952759
0.028455 0.358663 1.000000
0.106080 0.329248 1.000000
0.315674 0.309738 1.000000
0.509925 0.299718 0.994345
0.690768 0.292929 0.981820
0.805894 0.288198 0.973788
0.876492 0.284996 0.968774
0.892456 0.282631 0.967454
0.892342 0.280297 0.967200
0.101405 0.542843 0.988311
0.176096 0.507472 0.994486
0.377574 0.485262 0.990946
0.556927 0.472879 0.985409
0.724358 0.465009 0.979302
0.828998 0.460204 0.975220
0.893989 0.456169 0.972601
0.902162 0.453456 0.972281
0.901974 0.450340 0.972309
0.148968 0.712643 0.955423
0.229609 0.673787 0.971297
0.426081 0.649992 0.974958
0.602307 0.636735 0.973887
0.752284 0.628342 0.971567
0.847174 0.622357 0.969729
0.907859 0.618154 0.968422
0.912186 0.615723 0.968396
0.912041 0.613418 0.968477
0.180085 0.844077 0.933783
0.272542 0.807769 0.954487
0.464688 0.787271 0.961945
0.637693 0.776073 0.963590
0.778302 0.768315 0.963422
0.868348 0.763137 0.962862
0.921369 0.760462 0.962372
0.921215 0.758051 0.962486
0.921039 0.755299 0.962615
0.202058 0.941092 0.919644
0.306946 0.905058 0.943380
0.498981 0.884880 0.953059
0.667578 0.874098 0.956269
0.796329 0.867547 0.957209
0.884048 0.863088 0.957371
0.927764 0.859982 0.957378
0.927632 0.857930 0.957486
0.927510 0.856041 0.957586
0.217432 0.998114 0.913953
0.336463 0.966012 0.937362
0.527349 0.947658 0.947687
0.691544 0.937060 0.951654
0.810124 0.931290 0.953097
0.895646 0.928315 0.953599
0.932084 0.926775 0.953733
0.932048 0.926221 0.953764
0.932015 0.925707 0.953793
0.227723 1.000000 0.916592
0.360316 0.977395 0.937499
0.547081 0.961112 0.946927
0.708872 0.952345 0.950693
0.822278 0.947716 0.952083
0.904840 0.944897 0.952641
0.933202 0.944018 0.952759
0.933202 0.944018 0.952759
0.933202 0.944018 0.952759
0.237441 1.000000 0.919743
0.382771 0.974812 0.939148
0.564995 0.959975 0.947481
0.724923 0.951628 0.950941
0.835580 0.947234 0.952196
0.908200 0.944791 0.952657
0.933202 0.944018 0.952759
0.933202 0.944018 0.952759
0.933202 0.944018 0.952759
0.249001 0.997142 0.918384
0.407578 0.972229 0.940747
0.580280 0.959043 0.947923
0.739996 0.950974 0.951158
0.848701 0.946769 0.952299
0.915956 0.944547 0.952692
0.933202 0.944018 0.952759
0.933202 0.944018 0.952759
0.933202 0.944018 0.952759
