app/public/color-luts/stageA.cube
TITLE "stage_a"
LUT_3D_SIZE 9
DOMAIN_MIN 0.0 0.0 0.0
DOMAIN_MAX 1.0 1.0 1.0
0.012549 0.029771 0.009804
0.181806 0.029771 0.025406
0.419127 0.029771 0.076074
0.608761 0.029771 0.132562
0.770914 0.029771 0.183876
0.869336 0.029771 0.238160
0.931517 0.029771 0.294863
0.936880 0.029771 0.357492
0.936880 0.029771 0.417493
0.026244 0.170925 0.009804
0.204950 0.167529 0.017568
0.442904 0.164017 0.052700
0.633346 0.160117 0.112111
0.784752 0.156353 0.165430
0.878327 0.152726 0.216330
0.936836 0.148700 0.271963
0.936880 0.145155 0.331658
0.936880 0.141925 0.392884
0.039787 0.399733 0.009804
0.231336 0.395583 0.014994
0.466487 0.391462 0.032472
0.657232 0.387225 0.088559
0.797150 0.383344 0.145067
0.888862 0.378133 0.193764
0.936880 0.373079 0.251078
0.936880 0.369044 0.308657
0.936880 0.363752 0.371056
0.050570 0.588569 0.009804
0.255754 0.585068 0.009804
0.491832 0.582348 0.020588
0.676318 0.578659 0.065644
0.805636 0.575191 0.123122
0.897581 0.572690 0.175398
0.936880 0.567893 0.228006
0.936880 0.564375 0.284171
0.936880 0.561582 0.346336
0.074698 0.746437 0.009804
0.285069 0.743528 0.009804
0.515373 0.740824 0.015952
0.694192 0.739325 0.042588
0.815852 0.737205 0.101408
0.903233 0.734733 0.155150
0.936880 0.731983 0.206043
0.936880 0.729037 0.262897
0.936880 0.726629 0.322929
0.098595 0.852860 0.009804
0.314431 0.850640 0.009804
0.534547 0.849818 0.010542
0.711590 0.847783 0.026329
0.831472 0.845259 0.077350
0.909613 0.843745 0.134103
0.936880 0.841756 0.185035
0.936880 0.840203 0.239698
0.936880 0.839094 0.296080
0.123396 0.926980 0.009804
0.344513 0.925752 0.009804
0.552220 0.924469 0.009804
0.727691 0.923326 0.018056
0.843074 0.921647 0.054306
0.915779 0.920557 0.113324
0.936880 0.919791 0.166560
0.936880 0.915641 0.218210
0.936880 0.913349 0.273357
0.143870 0.947111 0.009804
0.374524 0.947111 0.009804
0.569717 0.947111 0.009804
0.745252 0.947111 0.014994
0.855056 0.947111 0.033542
0.921961 0.947111 0.090536
0.936880 0.947111 0.146301
0.936880 0.947111 0.195152
0.936880 0.947111 0.252590
0.165951 0.947111 0.009804
0.402287 0.947111 0.009804
0.591754 0.947111 0.009804
0.761033 0.947111 0.009804
0.864898 0.947111 0.021083
0.928745 0.947111 0.067468
0.936880 0.947111 0.124577
0.936880 0.947111 0.176756
0.936880 0.947111 0.229884
0.012549 0.029771 0.166713
0.176460 0.029771 0.218493
0.414664 0.029771 0.273566
0.602259 0.029771 0.334232
0.768023 0.029771 0.395320
0.868187 0.029771 0.455513
0.931435 0.029771 0.508697
0.936880 0.029771 0.555526
0.936880 0.029771 0.603775
0.022805 0.200618 0.146487
0.201145 0.197064 0.195341
0.437865 0.193225 0.252818
0.628293 0.188758 0.310584
0.782395 0.185205 0.372636
0.877975 0.181549 0.432531
0.935989 0.177675 0.488765
0.936880 0.173935 0.536086
0.936880 0.170483 0.586571
0.039687 0.429146 0.124796
0.225079 0.424852 0.176956
0.460347 0.422157 0.230167
0.652342 0.419302 0.285751
0.796437 0.416047 0.347945
0.885743 0.412966 0.410039
0.936880 0.409042 0.465941
0.936880 0.404399 0.519249
0.936880 0.399026 0.564684
0.046532 0.615885 0.103397
0.249849 0.611887 0.157093
0.487134 0.608663 0.207993
0.674408 0.605055 0.264392
0.803547 0.602207 0.324879
0.896028 0.599637 0.383455
0.936880 0.597085 0.443502
0.936880 0.592195 0.499800
0.936880 0.588095 0.547708
0.069652 0.763888 0.078817
0.279002 0.762270 0.135876
0.508567 0.759785 0.186419
0.690176 0.757531 0.241467
0.815072 0.756255 0.297481
0.902305 0.753493 0.361895
0.936880 0.750536 0.420426
0.936880 0.747822 0.478142
0.936880 0.746227 0.529060
0.094301 0.866561 0.056159
0.308199 0.865251 0.114720
0.529867 0.863932 0.167732
0.708721 0.862309 0.219883
0.828173 0.860367 0.274960
0.907910 0.858265 0.336590
0.936880 0.856306 0.397698
0.936880 0.854539 0.457011
0.936880 0.852568 0.510136
0.117838 0.932169 0.035089
0.339410 0.930583 0.092811
0.548261 0.929938 0.147722
0.724962 0.929842 0.196595
0.840831 0.929418 0.254349
0.914691 0.928822 0.312258
0.936880 0.928335 0.374088
0.936880 0.927919 0.434393
0.936880 0.926837 0.489870
0.139837 0.947111 0.021791
0.368762 0.947111 0.069395
0.565463 0.947111 0.126250
0.742656 0.947111 0.178279
0.851318 0.947111 0.231629
0.919811 0.947111 0.287124
0.936880 0.947111 0.349344
0.936880 0.947111 0.411374
0.936880 0.947111 0.467000
0.161125 0.947111 0.015952
0.396021 0.947111 0.045651
0.585492 0.947111 0.105114
0.758049 0.947111 0.158781
0.862749 0.947111 0.209220
0.928462 0.947111 0.265708
0.936880 0.947111 0.326573
0.936880 0.947111 0.384801
0.936880 0.947111 0.445073
0.012549 0.030526 0.374307
0.171114 0.029771 0.434638
0.408986 0.029771 0.490037
0.597660 0.029771 0.538112
0.763789 0.029771 0.587897
0.866214 0.029771 0.631172
0.930486 0.029771 0.675053
0.936880 0.029771 0.713962
0.936880 0.029771 0.752344
0.021664 0.233638 0.349554
0.195625 0.229121 0.411575
0.432596 0.224314 0.467160
0.622702 0.219524 0.520754
0.778114 0.215367 0.566052
0.874203 0.211402 0.612147
0.935228 0.207465 0.657649
0.936880 0.203590 0.699439
0.936880 0.200168 0.738268
0.036756 0.455652 0.326829
0.219736 0.451117 0.385003
0.455794 0.448474 0.445384
0.648544 0.444197 0.501501
0.793145 0.440691 0.548875
0.884914 0.438256 0.598139
0.936880 0.435841 0.639810
0.936880 0.432487 0.683838
0.936880 0.428581 0.722437
0.043220 0.646500 0.298882
0.245504 0.642092 0.364294
0.483174 0.637802 0.422309
0.669802 0.634076 0.480357
0.802925 0.631152 0.530613
0.893775 0.628051 0.577431
0.936880 0.624434 0.621980
0.936880 0.620027 0.668819
0.936880 0.615257 0.708223
0.065099 0.778572 0.276799
0.272208 0.776002 0.339304
0.505420 0.773433 0.400485
0.686932 0.771515 0.458733
0.811908 0.769984 0.511792
0.900659 0.768714 0.557911
0.936880 0.766760 0.605949
0.936880 0.765135 0.651566
0.936880 0.763675 0.692054
0.089989 0.877741 0.256254
0.300930 0.876236 0.314217
0.525330 0.874733 0.375759
0.704605 0.873246 0.436262
0.825427 0.872323 0.491278
0.907367 0.871101 0.539872
0.936880 0.869586 0.588843
0.936880 0.867769 0.632665
0.936880 0.866390 0.676181
0.112887 0.937327 0.233201
0.332366 0.936429 0.289012
0.545157 0.936181 0.350953
0.721548 0.935102 0.412910
0.838782 0.933682 0.468616
0.911676 0.933052 0.522062
0.936880 0.932958 0.567241
0.936880 0.932678 0.613407
0.936880 0.931984 0.658505
0.135132 0.947111 0.210632
0.363309 0.947111 0.267270
0.561410 0.947111 0.328338
0.738411 0.947111 0.386349
0.849976 0.947111 0.447448
0.919648 0.947111 0.502857
0.936880 0.947111 0.549890
0.936880 0.947111 0.599159
0.936880 0.947111 0.640988
0.156268 0.947111 0.189006
0.390527 0.947111 0.245379
0.580449 0.947111 0.301114
0.754591 0.947111 0.366380
0.860733 0.947111 0.423945
0.925446 0.947111 0.482077
0.936880 0.947111 0.531962
0.936880 0.947111 0.579316
0.936880 0.947111 0.622989
0.012549 0.058044 0.567420
0.166621 0.053961 0.613596
0.403247 0.049857 0.658747
0.592654 0.045765 0.701005
0.761211 0.041721 0.739419
0.865029 0.038209 0.770407
0.928871 0.035016 0.795716
0.936880 0.031816 0.825401
0.936880 0.030368 0.850967
0.019532 0.271374 0.550043
0.190452 0.266485 0.599313
0.428172 0.261481 0.641187
0.619212 0.257141 0.685654
0.775161 0.252711 0.723731
0.871641 0.246693 0.759237
0.932496 0.242958 0.783071
0.936880 0.238484 0.813079
0.936880 0.233035 0.841745
0.030144 0.486252 0.532104
0.215548 0.480819 0.579600
0.451238 0.475142 0.623140
0.642344 0.472931 0.670209
0.790000 0.469882 0.709963
0.882968 0.466347 0.746535
0.936880 0.462548 0.774456
0.936880 0.459553 0.801024
0.936880 0.454979 0.831806
0.040651 0.670667 0.513369
0.240399 0.667084 0.559186
0.476813 0.664108 0.607126
0.663204 0.661344 0.652751
0.800055 0.658617 0.693549
0.891786 0.655230 0.731781
0.936880 0.651782 0.765056
0.936880 0.648666 0.788952
0.936880 0.646173 0.818475
0.060132 0.795138 0.493070
0.267037 0.792890 0.541808
0.500342 0.791318 0.589932
0.683081 0.789742 0.634108
0.809210 0.786474 0.677361
0.898979 0.783657 0.715341
0.936880 0.782788 0.753526
0.936880 0.780646 0.777827
0.936880 0.778234 0.806388
0.085224 0.888414 0.470301
0.296286 0.887869 0.523477
0.520202 0.886429 0.568610
0.700272 0.884703 0.614855
0.821699 0.883084 0.660394
0.907367 0.882231 0.702366
0.936880 0.880790 0.740419
0.936880 0.879031 0.770644
0.936880 0.877546 0.796485
0.108017 0.942485 0.449823
0.325521 0.941955 0.504253
0.541614 0.941283 0.551167
0.717700 0.940941 0.600333
0.835504 0.940449 0.642513
0.910870 0.939862 0.686683
0.936880 0.939320 0.724855
0.936880 0.938247 0.760126
0.936880 0.937209 0.783926
0.131158 0.947111 0.425828
0.356794 0.947111 0.484056
0.558343 0.947111 0.532830
0.733939 0.947111 0.581486
0.848894 0.947111 0.624149
0.919648 0.947111 0.670921
0.936880 0.947111 0.711367
0.936880 0.947111 0.747075
0.936880 0.947111 0.774748
0.151982 0.947111 0.405304
0.384920 0.947111 0.461952
0.577470 0.947111 0.514706
0.750819 0.947111 0.560383
0.858752 0.947111 0.608149
0.924203 0.947111 0.653650
0.936880 0.947111 0.694544
0.936880 0.947111 0.732401
0.936880 0.947111 0.765669
0.012549 0.089383 0.725025
0.161966 0.085233 0.760260
0.396957 0.081349 0.784062
0.586466 0.077311 0.813778
0.758576 0.072846 0.842242
0.863089 0.069037 0.863450
0.928745 0.065296 0.882341
0.936880 0.061520 0.899240
0.936880 0.057518 0.911788
0.015538 0.301774 0.711450
0.185831 0.297500 0.747156
0.423295 0.293697 0.774792
0.614271 0.289669 0.801903
0.772744 0.286086 0.833007
0.870123 0.282481 0.856239
0.932068 0.277923 0.876619
0.936880 0.274683 0.892906
0.936880 0.270731 0.907574
0.027090 0.513060 0.694682
0.209315 0.510048 0.732494
0.446592 0.506505 0.765761
0.636986 0.502854 0.790323
0.787677 0.499976 0.820111
0.881199 0.496552 0.847355
0.936880 0.492917 0.867872
0.936880 0.489193 0.886900
0.936880 0.485807 0.902473
0.039787 0.694859 0.678370
0.235312 0.691925 0.716415
0.471305 0.690049 0.754020
0.661122 0.686912 0.778957
0.799301 0.683677 0.807367
0.890621 0.680599 0.837377
0.936880 0.677774 0.860092
0.936880 0.674064 0.879346
0.936880 0.670196 0.895505
0.054540 0.812840 0.662289
0.261789 0.810929 0.703350
0.495797 0.808521 0.741569
0.679212 0.805776 0.770916
0.808162 0.804244 0.797405
0.898483 0.802870 0.828208
0.936880 0.800873 0.851711
0.936880 0.797632 0.871256
0.936880 0.794761 0.888908
0.079276 0.897402 0.644038
0.289505 0.896347 0.687494
0.518669 0.895735 0.726236
0.696704 0.894024 0.761148
0.817692 0.892479 0.784965
0.905063 0.892037 0.814091
0.936880 0.891438 0.842674
0.936880 0.890002 0.864411
0.936880 0.888343 0.883014
0.103133 0.945604 0.625309
0.318056 0.945266 0.671740
0.537009 0.945156 0.711998
0.713937 0.945081 0.747753
0.833556 0.944142 0.775083
0.910870 0.943695 0.803010
0.936880 0.943492 0.833968
0.936880 0.942900 0.856716
0.936880 0.942425 0.876648
0.126085 0.947111 0.609222
0.349050 0.947111 0.654685
0.555055 0.947111 0.695597
0.729973 0.947111 0.733683
0.846589 0.947111 0.766373
0.915930 0.947111 0.791516
0.936880 0.947111 0.820895
0.936880 0.947111 0.848245
0.936880 0.947111 0.868338
0.147038 0.947111 0.592889
0.378951 0.947111 0.636797
0.573007 0.947111 0.679247
0.747149 0.947111 0.717850
0.855804 0.947111 0.754593
0.923886 0.947111 0.779940
0.936880 0.947111 0.808712
0.936880 0.947111 0.837944
0.936880 0.947111 0.861102
0.012549 0.119514 0.834081
0.156815 0.115311 0.856788
0.391256 0.112103 0.876652
0.581099 0.108096 0.893367
0.755113 0.104008 0.907924
0.861036 0.100274 0.921562
0.925748 0.095811 0.931650
0.936880 0.092191 0.938802
0.936880 0.088837 0.948238
0.012549 0.336596 0.821009
0.180586 0.332316 0.848379
0.418235 0.327941 0.868408
0.606985 0.322533 0.886965
0.770372 0.317683 0.902939
0.869107 0.313036 0.917203
0.931435 0.308814 0.927478
0.936880 0.305545 0.936018
0.936880 0.301177 0.943123
0.025334 0.541148 0.808914
0.204258 0.536845 0.838091
0.441760 0.533773 0.861254
0.632280 0.530686 0.880261
0.783870 0.527394 0.896150
0.877975 0.523517 0.910380
0.936638 0.519365 0.924064
0.936880 0.515719 0.933844
0.936880 0.512663 0.939592
0.039787 0.713082 0.798325
0.230113 0.711076 0.828710
0.464996 0.709037 0.852147
0.656072 0.706886 0.871347
0.796857 0.704062 0.889945
0.888096 0.701602 0.905155
0.936880 0.699636 0.920033
0.936880 0.697407 0.928732
0.936880 0.694432 0.937798
0.049466 0.826741 0.786005
0.253839 0.825529 0.814363
0.490667 0.823289 0.843292
0.675797 0.820854 0.865517
0.805108 0.818629 0.883789
0.897272 0.818371 0.900080
0.936880 0.816398 0.913310
0.936880 0.814164 0.926163
0.936880 0.812639 0.935349
0.073340 0.905467 0.775424
0.283729 0.904868 0.804283
0.513882 0.903960 0.834828
0.693243 0.903048 0.857207
0.815852 0.902342 0.876681
0.902972 0.901373 0.893875
0.936880 0.899758 0.908361
0.936880 0.898442 0.921670
0.936880 0.897257 0.931650
0.097374 0.947111 0.767332
0.313019 0.947111 0.792889
0.533457 0.947111 0.821764
0.711028 0.947111 0.849016
0.830558 0.947111 0.868874
0.909104 0.947111 0.887022
0.936880 0.946865 0.903357
0.936880 0.946353 0.917446
0.936880 0.945490 0.927622
0.122118 0.947111 0.755802
0.343433 0.947111 0.780998
0.551251 0.947111 0.810258
0.727167 0.947111 0.839068
0.841882 0.947111 0.861909
0.915779 0.947111 0.881056
0.936880 0.947111 0.896890
0.936880 0.947111 0.910447
0.936880 0.947111 0.924064
0.142993 0.947111 0.743813
0.373173 0.947111 0.771927
0.568924 0.947111 0.799124
0.744759 0.947111 0.829148
0.854844 0.947111 0.853010
0.921441 0.947111 0.871427
0.936880 0.947111 0.890847
0.936880 0.947111 0.905666
0.936880 0.947111 0.920729
0.012549 0.149785 0.903420
0.152801 0.146068 0.917472
0.385878 0.142727 0.927644
0.577820 0.139750 0.936412
0.751401 0.135248 0.943459
0.859052 0.130840 0.949179
0.924255 0.127544 0.949179
0.936880 0.123260 0.949179
0.936880 0.118945 0.949179
0.012549 0.374167 0.897001
0.175193 0.370132 0.910463
0.413335 0.365178 0.924064
0.601115 0.360045 0.933868
0.767277 0.355199 0.939674
0.867911 0.350960 0.949152
0.931300 0.346414 0.949179
0.936880 0.341463 0.949179
0.936880 0.335859 0.949179
0.022570 0.569190 0.890982
0.199893 0.565110 0.905743
0.436693 0.562382 0.920754
0.627074 0.559395 0.929367
0.781954 0.555115 0.937798
0.877368 0.550574 0.945707
0.935856 0.547968 0.949179
0.936880 0.544518 0.949179
0.936880 0.540582 0.949179
0.039621 0.732769 0.884563
0.223419 0.729831 0.900601
0.458985 0.727255 0.914219
0.651260 0.724988 0.926331
0.795821 0.722922 0.935594
0.885582 0.720512 0.941111
0.936880 0.717764 0.949179
0.936880 0.714823 0.949179
0.936880 0.712819 0.949179
0.045777 0.842313 0.876810
0.248790 0.840477 0.894459
0.486114 0.839461 0.909056
0.673445 0.837753 0.921997
0.803483 0.835444 0.931650
0.895527 0.832742 0.938905
0.936880 0.831289 0.948621
0.936880 0.828841 0.949179
0.936880 0.826582 0.949179
0.068590 0.920296 0.869496
0.277545 0.916759 0.887087
0.507779 0.913785 0.903837
0.689453 0.912257 0.917583
0.814405 0.911651 0.927788
0.902159 0.910014 0.936755
0.936880 0.907940 0.943750
0.936880 0.905805 0.949179
0.936880 0.905424 0.949179
0.093355 0.947111 0.862043
0.306526 0.947111 0.881749
0.528887 0.947111 0.897741
0.707822 0.947111 0.910574
0.827620 0.947111 0.924326
0.907604 0.947111 0.933888
0.936880 0.947111 0.939723
0.936880 0.947111 0.949179
0.936880 0.947111 0.949179
0.116701 0.947111 0.854003
0.337768 0.947111 0.872846
0.547488 0.947111 0.891884
0.724213 0.947111 0.906254
0.840769 0.947111 0.920919
0.914356 0.947111 0.929914
0.936880 0.947111 0.937798
0.936880 0.947111 0.946308
0.936880 0.947111 0.949179
0.138693 0.947111 0.844566
0.367497 0.947111 0.866528
0.564283 0.947111 0.885162
0.741996 0.947111 0.901055
0.850291 0.947111 0.915031
0.919648 0.947111 0.926541
0.936880 0.947111 0.935806
0.936880 0.947111 0.941546
0.936880 0.947111 0.949179
0.012549 0.178705 0.939731
0.147672 0.174943 0.949179
0.379806 0.171388 0.949179
0.573837 0.168014 0.949179
0.747699 0.164502 0.949179
0.856255 0.160662 0.949179
0.924203 0.156846 0.949179
0.936880 0.153276 0.949179
0.936880 0.149255 0.949179
0.012549 0.410177 0.937798
0.170080 0.405847 0.946399
0.407737 0.400474 0.949179
0.596707 0.396130 0.949179
0.762671 0.392053 0.949179
0.865703 0.387767 0.949179
0.930157 0.383880 0.949179
0.936880 0.378914 0.949179
0.936880 0.373636 0.949179
0.021286 0.597773 0.935838
0.194328 0.593517 0.941611
0.431345 0.589066 0.949179
0.621380 0.585464 0.949179
0.777010 0.582723 0.949179
0.873526 0.579215 0.949179
0.934548 0.575536 0.949179
0.936880 0.573035 0.949179
0.936880 0.568557 0.949179
0.034988 0.751362 0.931857
0.218939 0.748296 0.938905
0.454922 0.746657 0.948662
0.647618 0.743995 0.949179
0.792410 0.741031 0.949179
0.884455 0.739532 0.949179
0.936880 0.737498 0.949179
0.936880 0.735104 0.949179
0.936880 0.732389 0.949179
0.042456 0.856834 0.927804
0.244538 0.855007 0.937150
0.482129 0.853166 0.944084
0.668331 0.850946 0.949179
0.802183 0.849927 0.949179
0.893211 0.848174 0.949179
0.936880 0.845468 0.949179
0.936880 0.843954 0.949179
0.936880 0.842041 0.949179
0.064061 0.928426 0.924859
0.270773 0.928089 0.934067
0.504269 0.927129 0.939780
0.686049 0.925935 0.949179
0.811030 0.924627 0.949179
0.899970 0.923484 0.949179
0.936880 0.921891 0.949179
0.936880 0.920606 0.949179
0.936880 0.920249 0.949179
0.088943 0.947111 0.921110
0.299876 0.947111 0.930449
0.523957 0.947111 0.937800
0.703553 0.947111 0.947000
0.824701 0.947111 0.949179
0.907367 0.947111 0.949179
0.936880 0.947111 0.949179
0.936880 0.947111 0.949179
0.936880 0.947111 0.949179
0.111769 0.947111 0.915965
0.330865 0.947111 0.926811
0.544572 0.947111 0.935905
0.720724 0.947111 0.942046
0.838054 0.947111 0.949179
0.910870 0.947111 0.949179
0.936880 0.947111 0.949179
0.936880 0.947111 0.949179
0.936880 0.947111 0.949179
0.134313 0.947111 0.910356
0.362083 0.947111 0.923312
0.560744 0.947111 0.932431
0.737253 0.947111 0.938937
0.849865 0.947111 0.948697
0.919648 0.947111 0.949179
0.936880 0.947111 0.949179
0.936880 0.947111 0.949179
0.936880 0.947111 0.949179
0.012549 0.208526 0.949179
0.143571 0.204588 0.949179
0.374064 0.201090 0.949179
0.569447 0.197566 0.949179
0.745084 0.193842 0.949179
0.854984 0.189375 0.949179
0.921765 0.185677 0.949179
0.936880 0.182086 0.949179
0.936880 0.178193 0.949179
0.012549 0.436492 0.949179
0.165604 0.433478 0.949179
0.401791 0.429738 0.949179
0.591288 0.425444 0.949179
0.760941 0.422495 0.949179
0.864818 0.419754 0.949179
0.928745 0.416475 0.949179
0.936880 0.413391 0.949179
0.936880 0.409623 0.949179
0.018608 0.625622 0.949179
0.189467 0.621215 0.949179
0.427397 0.616543 0.949179
0.618704 0.612325 0.949179
0.774609 0.609150 0.949179
0.871250 0.605553 0.949179
0.932405 0.602563 0.949179
0.936880 0.599989 0.949179
0.936880 0.597437 0.949179
0.029054 0.767289 0.949179
0.214431 0.765514 0.949179
0.450103 0.764105 0.949179
0.640859 0.762493 0.949179
0.789444 0.760171 0.949179
0.882624 0.757707 0.949179
0.936880 0.756431 0.949179
0.936880 0.753876 0.949179
0.936880 0.750959 0.949179
0.040213 0.870061 0.949179
0.239130 0.868258 0.949179
0.475342 0.866742 0.949179
0.662668 0.865433 0.949179
0.799960 0.864114 0.949179
0.891612 0.862533 0.949179
0.936880 0.860662 0.949179
0.936880 0.858535 0.949179
0.936880 0.856576 0.949179
0.058948 0.932958 0.949179
0.265884 0.932836 0.949179
0.499301 0.932250 0.949179
0.682188 0.930806 0.949179
0.809210 0.929938 0.949179
0.898979 0.929900 0.949179
0.936880 0.929476 0.949179
0.936880 0.928908 0.949179
0.936880 0.928382 0.949179
0.083979 0.947111 0.949179
0.294721 0.947111 0.949179
0.519989 0.947111 0.949179
0.699402 0.947111 0.949179
0.820691 0.947111 0.949179
0.907367 0.947111 0.949179
0.936880 0.947111 0.949179
0.936880 0.947111 0.949179
0.936880 0.947111 0.949179
0.106910 0.947111 0.948748
0.323648 0.947111 0.949179
0.540346 0.947111 0.949179
0.716751 0.947111 0.949179
0.834738 0.947111 0.949179
0.910870 0.947111 0.949179
0.936880 0.947111 0.949179
0.936880 0.947111 0.949179
0.936880 0.947111 0.949179
0.129890 0.947111 0.944679
0.354808 0.947111 0.949179
0.557601 0.947111 0.949179
0.732985 0.947111 0.949179
0.848562 0.947111 0.949179
0.918950 0.947111 0.949179
0.936880 0.947111 0.949179
0.936880 0.947111 0.949179
0.936880 0.947111 0.949179
