app/public/color-luts/stageAB.cube
TITLE "stage_ab"
LUT_3D_SIZE 33
DOMAIN_MIN 0.0 0.0 0.0
DOMAIN_MAX 1.0 1.0 1.0
0.013502 0.030784 0.008490
0.039930 0.029679 0.014696
0.086616 0.029803 0.015381
0.140281 0.030159 0.017992
0.193012 0.030693 0.021549
0.251768 0.031517 0.027606
0.316853 0.032886 0.036854
0.389253 0.034944 0.047444
0.452437 0.037225 0.058636
0.509085 0.039713 0.070583
0.561706 0.042305 0.082274
0.605079 0.044684 0.092775
0.657977 0.047358 0.102684
0.715110 0.050365 0.113412
0.756453 0.053006 0.123965
0.796385 0.055465 0.133052
0.833494 0.058025 0.142979
0.863745 0.060437 0.152878
0.885544 0.063162 0.165931
0.915921 0.065930 0.177367
0.935610 0.068797 0.190921
0.957099 0.071820 0.204742
0.973633 0.074517 0.217247
0.985062 0.077217 0.230368
0.995868 0.080110 0.244412
0.998936 0.083255 0.260751
0.995803 0.086478 0.278130
0.993024 0.089422 0.293733
0.990314 0.092370 0.309119
0.987475 0.095533 0.325399
0.985171 0.098157 0.338738
0.981696 0.102206 0.359055
0.979482 0.104840 0.372119
0.017703 0.030635 0.008824
0.041232 0.029807 0.013436
0.092872 0.029889 0.015180
0.146070 0.030414 0.016401
0.200322 0.031052 0.018485
0.259333 0.031782 0.023560
0.324471 0.032961 0.031624
0.397625 0.034828 0.041403
0.461181 0.037013 0.053129
0.518219 0.039249 0.063272
0.568913 0.041780 0.075812
0.610798 0.044165 0.087238
0.668312 0.046926 0.097164
0.720095 0.049735 0.107786
0.763425 0.052286 0.117536
0.803691 0.054964 0.128261
0.837612 0.057443 0.138394
0.865902 0.059688 0.147705
0.891880 0.062369 0.159904
0.917508 0.065275 0.173148
0.938232 0.067945 0.185476
0.959654 0.070875 0.198901
0.974549 0.073672 0.212355
0.986220 0.076121 0.224136
0.997904 0.078979 0.237963
1.000000 0.081916 0.253425
0.996947 0.085289 0.271757
0.994371 0.087985 0.286150
0.991562 0.091003 0.302013
0.988356 0.094544 0.320333
0.986055 0.097145 0.333609
0.983225 0.100412 0.350087
0.980343 0.103811 0.367027
0.022837 0.075014 0.005987
0.044435 0.072841 0.009608
0.095422 0.070424 0.015065
0.146859 0.069412 0.016983
0.200401 0.068110 0.020105
0.258842 0.066626 0.025144
0.326702 0.065380 0.032279
0.397585 0.064540 0.041984
0.458380 0.064040 0.053968
0.517335 0.064123 0.064658
0.566764 0.064501 0.077854
0.608486 0.065082 0.090105
0.664044 0.066082 0.099972
0.719890 0.067287 0.109835
0.760570 0.068436 0.120944
0.799008 0.069704 0.132014
0.832882 0.070855 0.141623
0.861510 0.071991 0.151201
0.888377 0.073252 0.161289
0.916093 0.074981 0.173940
0.934428 0.076653 0.186949
0.956764 0.078469 0.199421
0.969642 0.080421 0.213666
0.983282 0.082142 0.225571
0.994922 0.084131 0.238881
0.995977 0.085984 0.252449
0.993257 0.088483 0.269781
0.990850 0.090812 0.285417
0.988384 0.093320 0.301487
0.985921 0.095944 0.317621
0.983648 0.098459 0.332383
0.981637 0.100761 0.345634
0.978583 0.104346 0.365241
0.026812 0.135996 0.001206
0.048627 0.133890 0.005221
0.099475 0.129222 0.013909
0.148174 0.127678 0.016785
0.202094 0.125409 0.020801
0.258120 0.123086 0.025134
0.326589 0.120472 0.032244
0.396686 0.117783 0.042173
0.456556 0.115455 0.054162
0.513401 0.113790 0.067093
0.562721 0.112723 0.079122
0.604505 0.111809 0.092470
0.660709 0.111424 0.103272
0.712680 0.111241 0.114301
0.752241 0.111119 0.126766
0.790805 0.111140 0.137163
0.826588 0.111260 0.147343
0.850254 0.111481 0.158684
0.880372 0.111856 0.168526
0.905226 0.112483 0.181727
0.926354 0.113109 0.194006
0.946268 0.113886 0.206912
0.959221 0.114714 0.221239
0.972746 0.115468 0.234161
0.984077 0.116207 0.246403
0.983190 0.117097 0.261182
0.980974 0.118264 0.277486
0.978673 0.119640 0.294433
0.976549 0.121153 0.309868
0.974575 0.122617 0.324321
0.972239 0.124523 0.341351
0.970471 0.125946 0.354473
0.967964 0.128210 0.372815
0.032245 0.195193 0.000000
0.055037 0.193150 0.002055
0.104318 0.189274 0.010034
0.151974 0.186373 0.015435
0.203433 0.184332 0.019372
0.263158 0.181774 0.024042
0.329214 0.178079 0.031041
0.398451 0.173997 0.040502
0.456664 0.170037 0.052115
0.513273 0.166558 0.065686
0.560971 0.164089 0.077304
0.601525 0.161772 0.091360
0.659856 0.160334 0.103958
0.709016 0.159236 0.115148
0.749046 0.158264 0.126805
0.787533 0.157604 0.138319
0.820949 0.157073 0.150460
0.845546 0.156600 0.161168
0.873717 0.156299 0.171015
0.899984 0.156120 0.182357
0.918544 0.156014 0.196622
0.939173 0.156012 0.209907
0.951207 0.156021 0.223192
0.964901 0.156245 0.237480
0.976657 0.156391 0.249301
0.975002 0.156619 0.263536
0.973299 0.157076 0.277637
0.971047 0.158030 0.296058
0.969413 0.158659 0.309684
0.967349 0.159722 0.326719
0.965224 0.160955 0.344273
0.963614 0.161867 0.357723
0.961840 0.163030 0.372450
0.035956 0.256312 0.000000
0.061970 0.253409 0.000000
0.108595 0.251243 0.005586
0.155485 0.245347 0.013487
0.208221 0.243594 0.017407
0.265868 0.239915 0.022962
0.333555 0.235929 0.029341
0.399936 0.231067 0.037704
0.457445 0.225622 0.048981
0.513923 0.220781 0.061958
0.560458 0.216805 0.075119
0.601718 0.213398 0.089076
0.660311 0.210948 0.102124
0.708003 0.208996 0.113715
0.747953 0.207258 0.125401
0.785754 0.205694 0.138132
0.818808 0.204387 0.150072
0.840248 0.203206 0.160684
0.871437 0.202344 0.171622
0.896048 0.201614 0.182424
0.916285 0.200955 0.195886
0.933399 0.200422 0.208599
0.945783 0.199999 0.222630
0.961838 0.199781 0.237011
0.970402 0.199518 0.250010
0.968946 0.199288 0.263810
0.967415 0.199210 0.278261
0.965655 0.199377 0.294735
0.963843 0.199712 0.311656
0.962231 0.199961 0.326872
0.960634 0.200222 0.342012
0.958964 0.200638 0.357772
0.957601 0.200893 0.370756
0.043632 0.329305 0.000000
0.068470 0.326485 0.000000
0.113953 0.324179 0.002178
0.159750 0.318100 0.010101
0.211765 0.314864 0.015722
0.269295 0.311793 0.021002
0.337450 0.308336 0.026933
0.402379 0.302863 0.035045
0.457945 0.296437 0.045680
0.513729 0.290385 0.058352
0.558630 0.284939 0.072399
0.603966 0.280494 0.084808
0.662237 0.276392 0.099092
0.706459 0.273069 0.111737
0.745902 0.270171 0.124017
0.783289 0.267537 0.136744
0.815903 0.265298 0.148044
0.838174 0.263085 0.160310
0.867109 0.261225 0.171664
0.892290 0.259569 0.181893
0.912086 0.257870 0.195044
0.930124 0.256327 0.208878
0.943183 0.255202 0.221945
0.956835 0.254227 0.236191
0.964411 0.253356 0.249979
0.963320 0.252531 0.262340
0.962018 0.251859 0.276821
0.960632 0.251108 0.292322
0.959047 0.250351 0.309977
0.957790 0.249600 0.324112
0.956422 0.249013 0.339285
0.954785 0.248705 0.357093
0.953617 0.248215 0.370014
0.050550 0.397207 0.000000
0.074671 0.394036 0.000000
0.119478 0.391254 0.000000
0.163197 0.387372 0.005662
0.215075 0.382045 0.013029
0.274036 0.379355 0.018491
0.339806 0.375147 0.024778
0.405272 0.369140 0.032528
0.458540 0.362077 0.041903
0.515479 0.354272 0.053954
0.559313 0.346806 0.067815
0.605969 0.341106 0.080476
0.662794 0.335641 0.095397
0.706256 0.331126 0.109053
0.744336 0.327512 0.121051
0.781593 0.324301 0.133201
0.815323 0.321308 0.145804
0.835994 0.318489 0.158517
0.866696 0.316204 0.169523
0.888813 0.314060 0.180219
0.908881 0.312091 0.191473
0.926375 0.310079 0.205492
0.939383 0.308258 0.219284
0.954236 0.306653 0.232701
0.959977 0.305106 0.247620
0.959021 0.303883 0.260386
0.957928 0.302930 0.274534
0.956860 0.302115 0.288241
0.955471 0.301466 0.305673
0.954244 0.300948 0.320994
0.952936 0.300578 0.337146
0.951627 0.300048 0.353385
0.950452 0.299571 0.367898
0.054048 0.471723 0.000000
0.082226 0.468363 0.000000
0.124764 0.465980 0.000000
0.167873 0.464316 0.001438
0.221153 0.456018 0.010567
0.278380 0.453836 0.016089
0.344933 0.449263 0.022873
0.407875 0.444048 0.029449
0.461411 0.436439 0.037966
0.517035 0.427756 0.049464
0.558767 0.419386 0.062590
0.607173 0.412117 0.076889
0.664114 0.406433 0.090466
0.705872 0.401135 0.104769
0.744221 0.396982 0.117194
0.781687 0.393216 0.129765
0.811504 0.389555 0.143348
0.833014 0.386521 0.155117
0.865463 0.383454 0.166282
0.886054 0.380381 0.178318
0.907329 0.377666 0.189227
0.923987 0.374774 0.203139
0.938201 0.372190 0.216058
0.950605 0.369936 0.229704
0.955539 0.367968 0.244480
0.954733 0.366230 0.257988
0.953945 0.364671 0.270924
0.953022 0.363198 0.285619
0.951981 0.361858 0.301734
0.950890 0.360379 0.318508
0.949873 0.359069 0.333908
0.948925 0.357883 0.348090
0.947782 0.356851 0.364731
0.056750 0.528879 0.000000
0.089160 0.525144 0.000000
0.129736 0.522569 0.000000
0.173469 0.520637 0.000000
0.225187 0.514535 0.007115
0.284306 0.510302 0.014334
0.350512 0.507238 0.020677
0.409826 0.502760 0.026779
0.465110 0.495554 0.034720
0.515313 0.486903 0.045040
0.559027 0.478230 0.057417
0.612620 0.470176 0.072095
0.665482 0.464348 0.084872
0.706853 0.458380 0.099600
0.746211 0.453533 0.113390
0.781423 0.449608 0.125802
0.810778 0.445630 0.138461
0.834658 0.442034 0.150812
0.863258 0.438667 0.163785
0.883848 0.435818 0.175070
0.906376 0.433294 0.185643
0.922902 0.430584 0.197883
0.935329 0.427684 0.212513
0.947617 0.425134 0.226219
0.952372 0.422753 0.239909
0.951680 0.420467 0.254588
0.951093 0.418539 0.266773
0.950359 0.417109 0.280836
0.949598 0.415830 0.294991
0.948590 0.414572 0.313086
0.947831 0.413618 0.326501
0.946858 0.412729 0.343223
0.945819 0.411889 0.360735
0.060920 0.590107 0.000000
0.095133 0.586441 0.000000
0.135341 0.584103 0.000000
0.178657 0.582321 0.000000
0.229065 0.580281 0.003220
0.289098 0.571797 0.012152
0.354314 0.569658 0.018155
0.413587 0.563830 0.024761
0.469370 0.556967 0.031852
0.518526 0.548344 0.040697
0.560684 0.538448 0.052294
0.616333 0.529265 0.066266
0.667678 0.521574 0.080151
0.709151 0.514460 0.094838
0.748098 0.507682 0.108703
0.781392 0.501964 0.121137
0.809784 0.496670 0.133543
0.836091 0.491524 0.146902
0.862820 0.486938 0.159583
0.882811 0.483536 0.170605
0.905190 0.480899 0.182140
0.920216 0.478445 0.193497
0.933340 0.475800 0.207329
0.945766 0.473476 0.220524
0.949949 0.471209 0.234672
0.949400 0.468831 0.249425
0.948887 0.466807 0.262565
0.948321 0.464900 0.276289
0.947712 0.463127 0.290416
0.946970 0.461395 0.306790
0.946193 0.459756 0.323320
0.945461 0.458243 0.338494
0.944709 0.456872 0.353609
0.065845 0.646479 0.000000
0.100491 0.642516 0.000000
0.140039 0.639882 0.000000
0.184144 0.637847 0.000000
0.233075 0.636217 0.000821
0.295375 0.627866 0.009971
0.359518 0.624174 0.016831
0.416158 0.620022 0.022659
0.471396 0.614615 0.028749
0.520575 0.605837 0.036902
0.562082 0.595494 0.047506
0.617189 0.585524 0.060846
0.671142 0.576404 0.075532
0.710427 0.569355 0.088365
0.748080 0.562325 0.103113
0.782018 0.556772 0.116173
0.808705 0.551789 0.128956
0.836430 0.547025 0.142297
0.863215 0.542964 0.154131
0.882969 0.539001 0.166546
0.905223 0.535454 0.178473
0.918850 0.532329 0.189162
0.933525 0.528878 0.202759
0.946216 0.525550 0.216636
0.947596 0.522501 0.229916
0.947233 0.519510 0.244439
0.946852 0.516837 0.258192
0.946489 0.514500 0.270429
0.946017 0.512264 0.284829
0.945468 0.510278 0.300295
0.944813 0.508364 0.317620
0.944254 0.506810 0.331804
0.943644 0.505363 0.346606
0.071122 0.702502 0.000000
0.107082 0.698676 0.000000
0.145515 0.696252 0.000000
0.190165 0.694358 0.000000
0.238908 0.693001 0.000000
0.298971 0.688782 0.006659
0.364340 0.682472 0.014766
0.419695 0.679295 0.020272
0.474016 0.673825 0.026282
0.521810 0.665321 0.033663
0.564781 0.654926 0.043009
0.620608 0.643984 0.055549
0.670735 0.633417 0.069883
0.710881 0.625239 0.082664
0.749343 0.616889 0.097782
0.784021 0.610239 0.111807
0.808233 0.605074 0.124024
0.837627 0.600327 0.136621
0.863504 0.595854 0.149559
0.884251 0.591717 0.162504
0.904740 0.588282 0.173960
0.918632 0.584553 0.184839
0.932516 0.580882 0.196357
0.944880 0.576888 0.210697
0.945500 0.573212 0.224546
0.945319 0.569837 0.238090
0.945058 0.566782 0.252929
0.944796 0.564516 0.265471
0.944468 0.562255 0.279449
0.944121 0.560214 0.292955
0.943625 0.558008 0.310377
0.943171 0.556201 0.325261
0.942648 0.554410 0.341355
0.077457 0.760252 0.000000
0.113112 0.756434 0.000000
0.150877 0.754039 0.000000
0.194204 0.752304 0.000000
0.246168 0.750936 0.000000
0.305451 0.749937 0.004057
0.369551 0.739855 0.013080
0.423364 0.737726 0.018297
0.477390 0.731860 0.024424
0.524311 0.725113 0.030469
0.564799 0.715208 0.038521
0.623122 0.703734 0.050504
0.672051 0.692633 0.063974
0.712620 0.682567 0.078109
0.751029 0.674041 0.091777
0.784855 0.666116 0.106137
0.809280 0.659739 0.118580
0.837798 0.653869 0.131344
0.863690 0.648112 0.145116
0.883833 0.643201 0.157157
0.903887 0.638822 0.168448
0.916452 0.634417 0.180621
0.931683 0.630536 0.191803
0.943614 0.626256 0.205771
0.943623 0.622621 0.218668
0.943569 0.619309 0.232416
0.943455 0.616101 0.247093
0.943311 0.613331 0.260399
0.943135 0.610799 0.273316
0.942896 0.608247 0.287853
0.942591 0.605635 0.303776
0.942228 0.603168 0.320394
0.941860 0.601010 0.335616
0.083610 0.814867 0.000000
0.119073 0.811427 0.000000
0.156696 0.809186 0.000000
0.201654 0.807408 0.000000
0.251378 0.806042 0.000000
0.312102 0.805007 0.002322
0.373657 0.797717 0.010359
0.426947 0.792275 0.016586
0.480508 0.787806 0.022159
0.524807 0.781405 0.027558
0.567998 0.771403 0.035008
0.625924 0.759567 0.045964
0.673641 0.747680 0.058541
0.714308 0.736301 0.072807
0.752445 0.727751 0.085469
0.785585 0.719022 0.100097
0.808132 0.711690 0.113640
0.839396 0.705820 0.126342
0.863871 0.700309 0.139198
0.884527 0.695382 0.151566
0.902289 0.690609 0.164559
0.916614 0.686614 0.175979
0.932991 0.683103 0.186689
0.941587 0.679352 0.199143
0.941749 0.675381 0.213604
0.941841 0.671921 0.227109
0.941879 0.668684 0.240799
0.941865 0.665556 0.255275
0.941823 0.662831 0.267273
0.941731 0.659999 0.281180
0.941595 0.657313 0.295418
0.941367 0.654425 0.313256
0.941164 0.652204 0.326626
0.088643 0.855437 0.000000
0.124945 0.852278 0.000000
0.161906 0.850315 0.000000
0.206375 0.848772 0.000000
0.258323 0.847604 0.000000
0.318552 0.846791 0.001140
0.378268 0.845094 0.008083
0.430858 0.835839 0.015155
0.482592 0.833789 0.020097
0.526848 0.827079 0.025650
0.572697 0.818714 0.032353
0.630442 0.808266 0.041835
0.674916 0.796127 0.053406
0.715389 0.784498 0.066812
0.752820 0.774818 0.080219
0.787029 0.765438 0.094935
0.810167 0.757693 0.108416
0.838287 0.751344 0.120940
0.863976 0.745516 0.133466
0.884967 0.739805 0.146791
0.903246 0.734866 0.159534
0.917411 0.730918 0.170635
0.931847 0.727121 0.182126
0.939976 0.723561 0.193472
0.940264 0.719631 0.207112
0.940479 0.716107 0.220324
0.940646 0.712630 0.234240
0.940759 0.709289 0.248845
0.940814 0.706477 0.261784
0.940827 0.703738 0.275469
0.940798 0.701166 0.289314
0.940715 0.698338 0.305639
0.940586 0.695608 0.321839
0.093956 0.895274 0.000000
0.129829 0.892341 0.000000
0.167217 0.889968 0.000000
0.212584 0.887971 0.000000
0.264813 0.886361 0.000000
0.324197 0.885103 0.000006
0.383392 0.884157 0.006902
0.435019 0.874719 0.013796
0.488742 0.871449 0.019375
0.529494 0.866701 0.024032
0.575464 0.860550 0.029630
0.632505 0.850305 0.038312
0.676909 0.838091 0.048884
0.716193 0.825837 0.061437
0.755120 0.814595 0.075531
0.788193 0.805903 0.088276
0.809585 0.797131 0.102499
0.842233 0.790311 0.115583
0.864247 0.784022 0.128355
0.884668 0.777956 0.141713
0.902747 0.772957 0.153503
0.916420 0.768121 0.165712
0.932213 0.763708 0.177732
0.938684 0.759898 0.188355
0.939094 0.755444 0.201868
0.939428 0.751328 0.215344
0.939692 0.747564 0.228543
0.939914 0.743814 0.242955
0.940067 0.740483 0.256525
0.940164 0.737680 0.268672
0.940227 0.734789 0.283030
0.940243 0.731950 0.298486
0.940206 0.729132 0.315505
0.099736 0.926793 0.000000
0.135364 0.923976 0.000000
0.173103 0.922109 0.000000
0.218806 0.920634 0.000000
0.271327 0.919538 0.000000
0.332642 0.918841 0.000000
0.388716 0.918519 0.006052
0.439919 0.914011 0.012000
0.491452 0.907452 0.018087
0.531333 0.904074 0.022267
0.579636 0.898176 0.027796
0.636022 0.888311 0.035688
0.678240 0.876522 0.044819
0.718535 0.863944 0.056437
0.757105 0.851750 0.070192
0.787880 0.842447 0.082555
0.811167 0.832880 0.097038
0.843193 0.825183 0.111098
0.864471 0.819059 0.123221
0.886774 0.813340 0.135746
0.904799 0.807955 0.148512
0.918828 0.802945 0.161354
0.931432 0.798747 0.172742
0.937460 0.794983 0.183413
0.937895 0.791240 0.194684
0.938361 0.786981 0.208929
0.938734 0.783195 0.222633
0.939039 0.779612 0.236035
0.939310 0.775858 0.250700
0.939492 0.772783 0.263062
0.939646 0.769633 0.276926
0.939751 0.766760 0.290285
0.939825 0.763488 0.307763
0.105265 0.964062 0.000000
0.139810 0.961483 0.000000
0.178886 0.959681 0.000000
0.224243 0.958061 0.000000
0.277410 0.956461 0.000000
0.338618 0.955210 0.000000
0.393642 0.954262 0.005083
0.443904 0.953482 0.010449
0.493662 0.941953 0.017061
0.533182 0.939592 0.020901
0.586668 0.932862 0.026886
0.637076 0.925135 0.033102
0.680357 0.913869 0.041058
0.721723 0.900457 0.051917
0.757616 0.887683 0.064587
0.787729 0.876546 0.078057
0.814375 0.867196 0.091360
0.842500 0.858669 0.105455
0.864190 0.851950 0.117761
0.887185 0.845766 0.130356
0.904245 0.839638 0.143871
0.917564 0.834600 0.155857
0.930900 0.830238 0.167010
0.936392 0.825844 0.178889
0.936897 0.822006 0.189810
0.937452 0.817373 0.203466
0.937906 0.812962 0.216232
0.938320 0.808598 0.229970
0.938685 0.804341 0.244529
0.938959 0.800634 0.257692
0.939179 0.797176 0.270632
0.939360 0.794443 0.285050
0.939503 0.791743 0.300821
0.109879 0.994049 0.000000
0.144749 0.991262 0.000000
0.183834 0.989509 0.000000
0.229797 0.988165 0.000000
0.284252 0.987170 0.000000
0.344486 0.986534 0.000000
0.398191 0.986188 0.004218
0.450452 0.985673 0.009890
0.497475 0.977848 0.015528
0.537609 0.972540 0.020094
0.589833 0.968052 0.025372
0.641803 0.961481 0.031118
0.682970 0.950708 0.038106
0.723113 0.937493 0.047782
0.758101 0.924217 0.059497
0.788706 0.911540 0.073075
0.815885 0.902003 0.085234
0.844687 0.892291 0.099591
0.864715 0.884766 0.112884
0.887930 0.878602 0.125394
0.903103 0.872824 0.138010
0.917667 0.867787 0.150107
0.930601 0.862891 0.162886
0.935269 0.858549 0.174101
0.935839 0.854399 0.184407
0.936447 0.849862 0.196825
0.937053 0.845121 0.211138
0.937540 0.840989 0.224422
0.937972 0.837037 0.238124
0.938349 0.833518 0.252369
0.938619 0.830711 0.264301
0.938882 0.827731 0.278102
0.939104 0.824858 0.292469
0.114386 1.000000 0.000000
0.149203 1.000000 0.000000
0.189739 1.000000 0.000000
0.234566 1.000000 0.000000
0.291094 1.000000 0.000000
0.350589 1.000000 0.000000
0.403296 1.000000 0.003473
0.454379 1.000000 0.009101
0.500139 1.000000 0.013848
0.540965 1.000000 0.019095
0.593127 1.000000 0.023918
0.644734 0.995552 0.029695
0.684283 0.985789 0.035730
0.723324 0.973681 0.043839
0.760154 0.959842 0.054747
0.787246 0.946436 0.067316
0.817750 0.935742 0.080177
0.844775 0.925453 0.094537
0.866936 0.917063 0.107898
0.889166 0.910212 0.120185
0.903700 0.903910 0.132305
0.919366 0.897697 0.145373
0.932230 0.892072 0.157975
0.934221 0.887408 0.168742
0.934910 0.882955 0.179751
0.935535 0.878753 0.190883
0.936206 0.874118 0.204420
0.936778 0.870168 0.217691
0.937296 0.866409 0.231428
0.937770 0.862749 0.245960
0.938132 0.859728 0.258741
0.938466 0.856728 0.272439
0.938750 0.853845 0.286061
0.119757 1.000000 0.000000
0.154461 1.000000 0.000000
0.194936 1.000000 0.000000
0.241965 1.000000 0.000000
0.296796 1.000000 0.000000
0.357002 1.000000 0.000000
0.408596 1.000000 0.002892
0.459333 1.000000 0.008558
0.502563 1.000000 0.012947
0.544522 1.000000 0.018269
0.598445 1.000000 0.023481
0.646093 1.000000 0.028450
0.685616 1.000000 0.033328
0.725263 1.000000 0.040636
0.761066 0.992560 0.050466
0.788087 0.978928 0.062162
0.818523 0.966478 0.075661
0.846180 0.956761 0.088171
0.867363 0.947061 0.102194
0.889317 0.939545 0.114729
0.903667 0.932705 0.127200
0.918589 0.926177 0.140413
0.931899 0.920892 0.152028
0.933185 0.915822 0.163638
0.933995 0.911139 0.175234
0.934654 0.907170 0.185690
0.935417 0.902492 0.199251
0.936072 0.898287 0.212415
0.936652 0.894383 0.225580
0.937209 0.890468 0.239931
0.937666 0.887002 0.253362
0.938029 0.883991 0.265458
0.938405 0.880719 0.279824
0.124456 1.000000 0.000000
0.158612 1.000000 0.000000
0.200092 1.000000 0.000000
0.248253 1.000000 0.000000
0.304925 1.000000 0.000000
0.362544 1.000000 0.000000
0.413676 1.000000 0.002470
0.464240 1.000000 0.008184
0.507535 1.000000 0.012634
0.546399 1.000000 0.016887
0.602797 1.000000 0.022880
0.648909 1.000000 0.027305
0.688551 1.000000 0.031873
0.727549 1.000000 0.038311
0.763034 1.000000 0.046830
0.788218 1.000000 0.057378
0.820163 0.993252 0.070640
0.846808 0.983266 0.082662
0.869253 0.972685 0.096907
0.889000 0.963922 0.110431
0.902471 0.956968 0.122171
0.919643 0.950424 0.134516
0.931270 0.944273 0.146982
0.932332 0.938536 0.159353
0.933176 0.933794 0.170326
0.933904 0.929563 0.180762
0.934612 0.925339 0.191976
0.935417 0.920458 0.206283
0.936094 0.916238 0.219908
0.936679 0.912523 0.233215
0.937245 0.908784 0.247749
0.937666 0.905821 0.259969
0.938087 0.902725 0.273748
0.129064 1.000000 0.000000
0.163919 1.000000 0.000000
0.206206 1.000000 0.000000
0.253726 1.000000 0.000000
0.312297 1.000000 0.000000
0.369118 1.000000 0.000000
0.418714 1.000000 0.002312
0.469545 1.000000 0.008064
0.510389 1.000000 0.012281
0.551212 1.000000 0.016191
0.608738 1.000000 0.022756
0.652147 1.000000 0.026586
0.691490 1.000000 0.031131
0.729725 1.000000 0.036304
0.763748 1.000000 0.043411
0.788928 1.000000 0.053112
0.821454 1.000000 0.065417
0.847932 1.000000 0.078459
0.869840 0.993939 0.091544
0.889461 0.984871 0.105103
0.904885 0.977744 0.117066
0.920792 0.970929 0.129309
0.930372 0.964133 0.142467
0.931456 0.958472 0.154073
0.932354 0.953620 0.164756
0.933233 0.948769 0.176337
0.933983 0.944516 0.187257
0.934816 0.939760 0.200786
0.935514 0.935613 0.213447
0.936191 0.931457 0.227197
0.936822 0.927420 0.241662
0.937329 0.923996 0.254709
0.937777 0.920858 0.267673
0.134470 1.000000 0.000000
0.168657 1.000000 0.000000
0.210345 1.000000 0.000000
0.260821 1.000000 0.000000
0.318093 1.000000 0.000000
0.375631 1.000000 0.000000
0.423046 1.000000 0.001706
0.473351 1.000000 0.007474
0.514187 1.000000 0.011753
0.557126 1.000000 0.015920
0.612840 1.000000 0.021766
0.654966 1.000000 0.026030
0.693023 1.000000 0.029885
0.729402 1.000000 0.034276
0.765328 1.000000 0.040683
0.790329 1.000000 0.049252
0.821591 1.000000 0.060591
0.847647 1.000000 0.073718
0.870011 1.000000 0.085543
0.889659 1.000000 0.099368
0.905007 1.000000 0.112260
0.920828 0.994888 0.124482
0.929229 0.988467 0.136835
0.930397 0.982914 0.148291
0.931525 0.977037 0.160552
0.932460 0.971452 0.171676
0.933245 0.966510 0.181935
0.934111 0.961065 0.194482
0.934985 0.955449 0.208706
0.935706 0.950516 0.221823
0.936372 0.946358 0.235570
0.936980 0.942448 0.249630
0.937442 0.939274 0.261537
0.138043 1.000000 0.000000
0.173613 1.000000 0.000000
0.217237 1.000000 0.000000
0.267088 1.000000 0.000000
0.324669 1.000000 0.000000
0.381731 1.000000 0.000000
0.429128 1.000000 0.001961
0.479914 1.000000 0.007751
0.518016 1.000000 0.011735
0.561933 1.000000 0.015998
0.615859 1.000000 0.020998
0.658742 1.000000 0.025763
0.695487 1.000000 0.029050
0.733563 1.000000 0.033471
0.765846 1.000000 0.038814
0.788983 1.000000 0.045731
0.824272 1.000000 0.056339
0.848283 1.000000 0.068573
0.870824 1.000000 0.080765
0.889701 1.000000 0.094632
0.905762 1.000000 0.107656
0.921274 1.000000 0.119599
0.928275 1.000000 0.131343
0.929641 0.997699 0.143735
0.930834 0.991739 0.155898
0.931783 0.986834 0.166615
0.932659 0.982198 0.177488
0.933474 0.977784 0.188581
0.934360 0.973305 0.202040
0.935150 0.969237 0.215402
0.935873 0.965415 0.228994
0.936564 0.961652 0.243490
0.937106 0.958606 0.256143
0.142470 1.000000 0.000000
0.178863 1.000000 0.000000
0.222577 1.000000 0.000000
0.273904 1.000000 0.000000
0.333234 1.000000 0.000000
0.386764 1.000000 0.000000
0.436045 1.000000 0.002264
0.482472 1.000000 0.007556
0.521417 1.000000 0.011645
0.568942 1.000000 0.016261
0.620524 1.000000 0.020872
0.662029 1.000000 0.025530
0.699726 1.000000 0.028951
0.735958 1.000000 0.032802
0.766610 1.000000 0.036878
0.791625 1.000000 0.043012
0.824409 1.000000 0.052469
0.847934 1.000000 0.063795
0.872708 1.000000 0.076793
0.891975 1.000000 0.088851
0.906710 1.000000 0.102403
0.920454 1.000000 0.114406
0.927427 1.000000 0.126516
0.928908 1.000000 0.139208
0.930063 1.000000 0.150313
0.931134 1.000000 0.161705
0.932119 0.995258 0.173281
0.932933 0.991203 0.183753
