app/public/color-luts/stageABC.cube
TITLE "stage_abc"
LUT_3D_SIZE 5
DOMAIN_MIN 0.0 0.0 0.0
DOMAIN_MAX 1.0 1.0 1.0
0.012427 0.030784 0.007103
0.452437 0.022680 0.044841
0.833494 0.035948 0.123320
0.995868 0.061278 0.228959
0.979482 0.099340 0.368300
0.054048 0.471723 0.000000
0.461411 0.436703 0.042448
0.811504 0.387540 0.140158
0.955539 0.353951 0.227517
0.947782 0.333594 0.341784
0.093956 0.895274 0.000000
0.491827 0.871449 0.026246
0.809585 0.797270 0.110395
0.939094 0.756895 0.207696
0.940206 0.730202 0.318674
0.134470 1.000000 0.000000
0.517779 1.000000 0.019060
0.823759 1.000000 0.072007
0.932081 0.977037 0.170514
0.937463 0.939274 0.269299
0.166531 1.000000 0.000000
0.555519 1.000000 0.022331
0.833694 1.000000 0.051805
0.927617 1.000000 0.133244
0.935759 0.987211 0.228208
0.000000 0.109560 0.416579
0.363972 0.075375 0.499032
0.755768 0.136035 0.567962
0.928440 0.158021 0.645201
0.923036 0.174389 0.727904
0.092231 0.477254 0.292226
0.453751 0.446228 0.446656
0.785337 0.436897 0.551452
0.926972 0.438563 0.644020
0.920718 0.436141 0.729709
0.108049 0.822237 0.158525
0.511531 0.778374 0.368579
0.813711 0.763263 0.506455
0.935220 0.756024 0.601463
0.932361 0.751560 0.687795
0.130409 1.000000 0.080940
0.553730 0.956856 0.306178
0.845881 0.935333 0.458172
0.940511 0.927056 0.559403
0.939385 0.923538 0.652403
0.151969 1.000000 0.037714
0.591891 0.975608 0.269307
0.867089 0.953363 0.413890
0.941112 0.943429 0.523332
0.940413 0.939603 0.615624
0.000000 0.229137 0.802833
0.229465 0.073212 0.827190
0.693847 0.132281 0.855846
0.891402 0.160849 0.881241
0.894904 0.158312 0.911441
0.102565 0.564795 0.692861
0.408962 0.506031 0.785379
0.756596 0.477402 0.837846
0.912162 0.485363 0.882750
0.908190 0.470383 0.921503
0.172285 0.857209 0.611038
0.505004 0.814221 0.734023
0.804852 0.800772 0.799897
0.928081 0.796602 0.857231
0.926255 0.790141 0.896241
0.194185 0.984277 0.548855
0.541726 0.949407 0.680674
0.836610 0.938455 0.766127
0.936244 0.936240 0.832879
0.935062 0.936472 0.877279
0.213631 0.979297 0.516780
0.570640 0.949585 0.640958
0.860706 0.940542 0.749123
0.937085 0.939264 0.806585
0.935795 0.940606 0.860969
0.000000 0.303167 0.992700
0.173129 0.112293 0.985952
0.661651 0.175460 0.972685
0.867048 0.166994 0.963981
0.882830 0.167253 0.961992
0.119062 0.644688 0.901212
0.391793 0.571619 0.948705
0.730313 0.530144 0.961659
0.900751 0.520513 0.969937
0.901425 0.513098 0.970099
0.161938 0.904993 0.842597
0.489773 0.852489 0.912647
0.787013 0.830692 0.940339
0.922126 0.816644 0.958263
0.921677 0.811530 0.959085
0.204398 0.997779 0.816752
0.539696 0.957803 0.889536
0.825028 0.946302 0.925039
0.933011 0.943587 0.942739
0.932653 0.943772 0.952759
0.229053 0.988861 0.804449
0.574136 0.955344 0.877030
0.848910 0.945145 0.915461
0.933284 0.943413 0.938485
0.932653 0.943772 0.952759
0.000000 0.339880 1.000000
0.183700 0.176619 1.000000
0.657395 0.213938 0.981820
0.865247 0.201670 0.968774
0.883551 0.199632 0.967200
0.130650 0.707128 0.955423
0.395851 0.632095 0.974958
0.717095 0.573265 0.971567
0.900537 0.575803 0.968422
0.905197 0.570364 0.968477
0.163199 0.941092 0.918516
0.481216 0.882212 0.953059
0.788508 0.863188 0.957209
0.924281 0.848525 0.957378
0.923966 0.844077 0.957586
0.193143 1.000000 0.912857
0.525525 0.961112 0.946188
0.815556 0.947490 0.952083
0.932653 0.943772 0.952759
0.932653 0.943772 0.952759
0.215300 0.997142 0.914836
0.560377 0.959043 0.947338
0.843557 0.946495 0.952299
0.932653 0.943772 0.952759
0.932653 0.943772 0.952759
