app/public/color-luts/stageABC.cube
TITLE "stage_abc"
LUT_3D_SIZE 9
DOMAIN_MIN 0.0 0.0 0.0
DOMAIN_MAX 1.0 1.0 1.0
0.012427 0.030784 0.007103
0.193012 0.024908 0.015438
0.452437 0.022680 0.044841
0.657977 0.028665 0.085685
0.833494 0.035948 0.123320
0.935610 0.047193 0.172361
0.995868 0.061278 0.228959
0.990314 0.080200 0.299887
0.979482 0.099340 0.368300
0.032245 0.195193 0.000000
0.203433 0.184522 0.021204
0.456664 0.166506 0.047132
0.659856 0.144883 0.086763
0.820949 0.130585 0.123708
0.918544 0.129448 0.171471
0.976657 0.133383 0.228899
0.969413 0.142616 0.296629
0.961840 0.154082 0.365848
0.054048 0.471723 0.000000
0.221241 0.456018 0.010735
0.461411 0.436703 0.042448
0.664114 0.406820 0.091328
0.811504 0.387540 0.140158
0.907329 0.369635 0.178338
0.955539 0.353951 0.227517
0.951981 0.343087 0.281051
0.947782 0.333594 0.341784
0.071122 0.702502 0.000000
0.238908 0.693001 0.000000
0.476070 0.673825 0.032939
0.670735 0.633811 0.076216
0.808233 0.606372 0.128394
0.904740 0.588922 0.175437
0.945500 0.572969 0.224075
0.944468 0.561290 0.277770
0.942648 0.552018 0.337650
0.093956 0.895274 0.000000
0.264813 0.886361 0.000000
0.491827 0.871449 0.026246
0.678832 0.838091 0.058297
0.809585 0.797270 0.110395
0.902747 0.774122 0.160227
0.939094 0.756895 0.207696
0.940067 0.741789 0.260999
0.940206 0.730202 0.318674
0.114386 1.000000 0.000000
0.291094 1.000000 0.000000
0.502899 1.000000 0.019294
0.687341 0.985789 0.045366
0.819281 0.935742 0.091277
0.903703 0.903910 0.141116
0.934910 0.883498 0.187639
0.937296 0.867118 0.238487
0.938750 0.854658 0.292316
0.134470 1.000000 0.000000
0.318093 1.000000 0.000000
0.517779 1.000000 0.019060
0.696141 1.000000 0.039739
0.823759 1.000000 0.072007
0.906235 1.000000 0.123732
0.932081 0.977037 0.170514
0.935227 0.955449 0.217519
0.937463 0.939274 0.269299
0.149937 1.000000 0.000000
0.345349 1.000000 0.000000
0.534033 1.000000 0.019915
0.710733 1.000000 0.039158
0.828675 1.000000 0.057976
0.908283 1.000000 0.104210
0.929878 1.000000 0.152205
0.933796 0.997709 0.196233
0.936813 0.981278 0.249446
0.166531 1.000000 0.000000
0.370959 1.000000 0.000000
0.555519 1.000000 0.022331
0.722992 1.000000 0.038971
0.833694 1.000000 0.051805
0.911066 1.000000 0.086264
0.927617 1.000000 0.133244
0.932496 1.000000 0.179491
0.935759 0.987211 0.228208
0.000000 0.050400 0.181716
0.156016 0.039690 0.224957
0.415591 0.067666 0.263470
0.615585 0.083193 0.312807
0.792084 0.099008 0.363976
0.894989 0.113084 0.418872
0.957378 0.124998 0.469281
0.955545 0.134161 0.517820
0.947427 0.143688 0.568684
0.044207 0.208995 0.133129
0.200231 0.195996 0.195828
0.436562 0.188921 0.250329
0.632800 0.186624 0.302417
0.792065 0.189291 0.359973
0.888991 0.195353 0.419070
0.945624 0.203104 0.476833
0.941200 0.205624 0.525443
0.935345 0.208615 0.577460
0.056326 0.456280 0.055296
0.225878 0.432828 0.148647
0.461694 0.420707 0.226895
0.654364 0.411285 0.279971
0.800288 0.397057 0.332094
0.889713 0.385389 0.386970
0.939502 0.387735 0.449445
0.935754 0.392592 0.511279
0.932414 0.396285 0.563208
0.069510 0.673341 0.000000
0.247477 0.641333 0.102802
0.491989 0.622351 0.199151
0.676337 0.608957 0.260355
0.806099 0.598962 0.319971
0.898896 0.590737 0.376788
0.938604 0.582671 0.433377
0.936292 0.573749 0.487407
0.934090 0.566410 0.533825
0.120895 0.853538 0.000000
0.271191 0.816488 0.063069
0.514932 0.793595 0.171290
0.692950 0.776674 0.235389
0.817188 0.765422 0.292586
0.904914 0.754594 0.357039
0.939145 0.746066 0.414650
0.938101 0.739829 0.472223
0.936889 0.736292 0.523471
0.140202 0.987155 0.000000
0.294142 0.942342 0.032543
0.535714 0.915903 0.148975
0.711426 0.896943 0.210987
0.830238 0.881583 0.269442
0.910331 0.868792 0.330706
0.939728 0.859247 0.391380
0.939623 0.852203 0.450441
0.939143 0.846931 0.503859
0.149721 1.000000 0.000000
0.321628 1.000000 0.013001
0.550635 0.998036 0.125245
0.726273 0.978862 0.186803
0.842661 0.961865 0.248283
0.916922 0.948679 0.306074
0.939919 0.938284 0.366528
0.940574 0.930914 0.426119
0.940710 0.925102 0.481551
0.157515 1.000000 0.000000
0.348273 1.000000 0.002118
0.565403 1.000000 0.108776
0.741973 1.000000 0.170130
0.851876 0.987150 0.226596
0.921392 0.973531 0.281854
0.939799 0.962120 0.342133
0.940752 0.953729 0.402950
0.941132 0.948120 0.458174
0.168713 1.000000 0.000000
0.374934 1.000000 0.000000
0.581010 1.000000 0.091779
0.755044 1.000000 0.153309
0.861728 0.993484 0.206252
0.929079 0.978184 0.261657
0.939282 0.965878 0.320050
0.940419 0.957019 0.376787
0.941030 0.950139 0.436336
0.000000 0.109560 0.416579
0.061052 0.035912 0.463346
0.363972 0.075375 0.499032
0.578586 0.105566 0.529873
0.755768 0.136035 0.567962
0.863481 0.147370 0.604398
0.928440 0.158021 0.645201
0.929260 0.166283 0.686391
0.923036 0.174389 0.727904
0.050766 0.258572 0.353864
0.168439 0.230894 0.425865
0.408634 0.213040 0.479374
0.607146 0.232750 0.526742
0.766291 0.238404 0.567342
0.863736 0.241220 0.610731
0.924077 0.244044 0.655074
0.921232 0.246059 0.698925
0.916887 0.248382 0.740099
0.092231 0.477254 0.292226
0.232282 0.456161 0.376694
0.453751 0.446228 0.446656
0.641504 0.439907 0.504377
0.785337 0.436897 0.551452
0.876296 0.438798 0.602168
0.926972 0.438563 0.644020
0.923693 0.437537 0.689455
0.920718 0.436141 0.729709
0.095996 0.679506 0.210919
0.249996 0.652103 0.317030
0.487098 0.636280 0.405199
0.670206 0.627651 0.477267
0.800459 0.620914 0.526526
0.889731 0.610990 0.568125
0.931175 0.603574 0.611084
0.928809 0.607000 0.666754
0.926666 0.609406 0.712353
0.108049 0.822237 0.158525
0.270618 0.795139 0.262517
0.511531 0.778374 0.368579
0.693163 0.768655 0.450428
0.813711 0.763263 0.506455
0.900524 0.759517 0.553049
0.935220 0.756024 0.601463
0.933771 0.754165 0.648000
0.932361 0.751560 0.687795
0.120303 0.931914 0.116707
0.291678 0.905455 0.214858
0.532753 0.887996 0.333995
0.714473 0.876503 0.422974
0.830620 0.869501 0.483119
0.910085 0.864916 0.533109
0.938441 0.861500 0.583188
0.937578 0.858869 0.627933
0.936580 0.857188 0.672358
0.130409 1.000000 0.080940
0.324103 0.974061 0.186782
0.553730 0.956856 0.306178
0.732785 0.944148 0.396907
0.845881 0.935333 0.458172
0.916210 0.929730 0.513484
0.940511 0.927056 0.559403
0.940037 0.925165 0.606326
0.939385 0.923538 0.652403
0.141468 1.000000 0.058303
0.357790 0.988542 0.174116
0.571446 0.971582 0.288402
0.748720 0.959709 0.370655
0.856974 0.951202 0.436821
0.924478 0.945577 0.493943
0.941031 0.942440 0.541424
0.940661 0.940328 0.591362
0.940194 0.939171 0.633989
0.151969 1.000000 0.037714
0.387164 0.992061 0.162322
0.591891 0.975608 0.269307
0.763677 0.961995 0.351730
0.867089 0.953363 0.413890
0.930070 0.947035 0.473151
0.941112 0.943429 0.523332
0.940833 0.941075 0.571211
0.940413 0.939603 0.615624
0.000000 0.172624 0.630340
0.031265 0.088662 0.662406
0.297108 0.080650 0.687086
0.530007 0.107945 0.713681
0.727780 0.129021 0.737794
0.839075 0.154059 0.756075
0.906486 0.169223 0.775697
0.911085 0.170104 0.805713
0.907190 0.168855 0.833412
0.045286 0.317251 0.571008
0.145548 0.281042 0.627622
0.352433 0.227900 0.665769
0.576874 0.246468 0.705250
0.748171 0.258681 0.737355
0.845704 0.268914 0.767267
0.907448 0.275607 0.789016
0.908861 0.268273 0.820357
0.905709 0.259617 0.851521
0.091771 0.523764 0.517193
0.224835 0.495940 0.584706
0.425596 0.468807 0.634278
0.621485 0.456329 0.682399
0.773019 0.467562 0.719779
0.864766 0.471890 0.756636
0.917752 0.470144 0.784436
0.915706 0.466970 0.812182
0.913249 0.456173 0.844004
0.136934 0.706729 0.464934
0.270423 0.679744 0.541333
0.481671 0.665627 0.602958
0.660621 0.658483 0.654752
0.792609 0.653519 0.697181
0.881754 0.651382 0.737516
0.925052 0.648505 0.771711
0.923708 0.646049 0.796533
0.922055 0.644509 0.827489
0.144575 0.832109 0.415605
0.291664 0.806488 0.500381
0.498314 0.792611 0.562023
0.685619 0.785182 0.624360
0.808301 0.779552 0.675917
0.894917 0.774448 0.713561
0.930924 0.770299 0.749745
0.929933 0.768143 0.775174
0.928723 0.770570 0.809069
0.153244 0.927048 0.369370
0.310377 0.903903 0.458787
0.514926 0.889895 0.520607
0.706174 0.881296 0.596273
0.826021 0.876133 0.654779
0.907738 0.873710 0.698876
0.935579 0.872088 0.738038
0.934684 0.870782 0.769180
0.933872 0.869808 0.795866
0.163929 0.982507 0.336192
0.334041 0.959818 0.427457
0.533239 0.946748 0.490386
0.726267 0.939041 0.578566
0.842620 0.934540 0.633818
0.914156 0.931671 0.680955
0.938513 0.930545 0.720258
0.937733 0.929703 0.756652
0.937144 0.928989 0.781279
0.175007 0.985799 0.311298
0.359124 0.964393 0.404534
0.552491 0.952947 0.473264
0.745321 0.945540 0.564862
0.855958 0.941441 0.615171
0.923201 0.939016 0.664601
0.939105 0.938355 0.706108
0.938422 0.938428 0.742868
0.937848 0.938699 0.771437
0.186028 0.984832 0.290655
0.381717 0.964167 0.379800
0.577173 0.953120 0.462012
0.762610 0.945876 0.546422
0.865531 0.941637 0.599217
0.927811 0.939174 0.646916
0.939398 0.938430 0.688828
0.938713 0.938361 0.727748
0.938041 0.938591 0.762057
0.000000 0.229137 0.802833
0.013764 0.136719 0.824402
0.229465 0.073212 0.827190
0.494678 0.135007 0.841508
0.693847 0.132281 0.855846
0.817124 0.142995 0.868451
0.891402 0.160849 0.881241
0.897947 0.160880 0.898737
0.894904 0.158312 0.911441
0.036955 0.365466 0.746278
0.128277 0.324185 0.787156
0.294005 0.236289 0.809414
0.548225 0.281065 0.830280
0.722668 0.275344 0.855829
0.831275 0.278726 0.875529
0.898161 0.288520 0.893480
0.900613 0.283541 0.910939
0.897214 0.276597 0.926567
0.102565 0.564795 0.692861
0.221157 0.538333 0.747745
0.408962 0.506031 0.785379
0.586242 0.470933 0.809326
0.756596 0.477402 0.837846
0.856676 0.481603 0.864369
0.912162 0.485363 0.882750
0.910627 0.477844 0.904394
0.908190 0.470383 0.921503
0.137531 0.742148 0.644553
0.254845 0.713854 0.710763
0.471049 0.697452 0.758778
0.645462 0.682385 0.786912
0.785121 0.669206 0.816715
0.876781 0.673647 0.846495
0.921386 0.673718 0.869977
0.920199 0.665276 0.890276
0.919142 0.657473 0.908246
0.172285 0.857209 0.611038
0.301191 0.829738 0.681144
0.505004 0.814221 0.734023
0.679098 0.805255 0.770080
0.804852 0.800772 0.799897
0.891475 0.798599 0.832647
0.928081 0.796602 0.857231
0.927132 0.793662 0.877708
0.926255 0.790141 0.896241
0.184648 0.938586 0.577566
0.331868 0.913861 0.653577
0.529060 0.900260 0.706415
0.693201 0.892162 0.746024
0.817788 0.887395 0.778991
0.903173 0.885562 0.814098
0.933201 0.884885 0.843392
0.932446 0.883668 0.865501
0.931754 0.881826 0.884529
0.194185 0.984277 0.548855
0.351640 0.961732 0.627339
0.541726 0.949407 0.680674
0.708494 0.942749 0.721870
0.836610 0.938455 0.766127
0.912163 0.936402 0.800694
0.936244 0.936240 0.832879
0.935624 0.936296 0.856528
0.935062 0.936472 0.877279
0.203943 0.982177 0.533270
0.373781 0.961311 0.608091
0.555205 0.950433 0.660119
0.723494 0.944095 0.704525
0.851637 0.940941 0.761000
0.917472 0.939475 0.788787
0.936797 0.939527 0.819214
0.936123 0.940226 0.847605
0.935607 0.940833 0.868496
0.213631 0.979297 0.516780
0.395430 0.959348 0.587569
0.570640 0.949585 0.640958
0.744913 0.943417 0.691590
0.860706 0.940542 0.749123
0.925310 0.939090 0.776866
0.937085 0.939264 0.806585
0.936381 0.939945 0.836906
0.935795 0.940606 0.860969
0.000000 0.273446 0.920348
0.006461 0.175995 0.929936
0.178725 0.076240 0.929912
0.457387 0.136282 0.931118
0.673167 0.154335 0.931313
0.797263 0.151311 0.936393
0.874341 0.158036 0.941009
0.886124 0.159221 0.947234
0.883359 0.156319 0.956949
0.038686 0.413122 0.862765
0.120214 0.368201 0.895128
0.285711 0.289488 0.909597
0.507723 0.288491 0.921743
0.706724 0.308000 0.931118
0.816738 0.300717 0.941365
0.887372 0.300864 0.949020
0.891528 0.297578 0.957835
0.889443 0.292114 0.965390
0.111485 0.606141 0.815006
0.211391 0.572485 0.860068
0.397203 0.538296 0.886515
0.543922 0.474406 0.904432
0.740220 0.506435 0.918160
0.841705 0.498115 0.930915
0.905383 0.496500 0.943848
0.903199 0.490060 0.954343
0.901623 0.485357 0.960538
0.133387 0.770765 0.777916
0.255638 0.738776 0.830416
0.467313 0.723055 0.862433
0.631416 0.703209 0.884115
0.765490 0.680725 0.903367
0.866635 0.681351 0.918670
0.917983 0.681027 0.933865
0.916108 0.675834 0.943178
0.914040 0.670780 0.952915
0.165650 0.880754 0.743688
0.286588 0.851337 0.800660
0.491906 0.833940 0.843630
0.672390 0.823641 0.870390
0.791051 0.812316 0.890545
0.886215 0.806574 0.907715
0.926495 0.807114 0.921282
0.924812 0.800686 0.935332
0.922971 0.796915 0.945124
0.193030 0.954132 0.724288
0.327391 0.927507 0.780479
0.526057 0.912622 0.825431
0.694868 0.904655 0.854504
0.813915 0.900497 0.877453
0.899355 0.897662 0.896777
0.931588 0.895748 0.912210
0.931066 0.893453 0.926130
0.929892 0.889333 0.936951
0.213445 0.991511 0.714111
0.360457 0.967252 0.765469
0.552481 0.954268 0.808397
0.714967 0.947431 0.841557
0.826864 0.943970 0.862564
0.907518 0.942245 0.885853
0.934638 0.941829 0.904899
0.934185 0.941886 0.919541
0.933464 0.941466 0.929670
0.226753 0.986766 0.705836
0.386976 0.964443 0.755042
0.567564 0.952982 0.796048
0.728422 0.946490 0.829863
0.837314 0.943373 0.853930
0.915068 0.941842 0.881327
0.934839 0.941826 0.898182
0.934448 0.942349 0.912239
0.933942 0.942906 0.926222
0.237808 0.983149 0.695384
0.411289 0.962007 0.746748
0.581591 0.951785 0.783507
0.743262 0.945544 0.817746
0.849871 0.942686 0.843009
0.920777 0.941356 0.871475
0.935008 0.941603 0.891918
0.934589 0.942161 0.907280
0.934132 0.942767 0.922907
0.000000 0.303167 0.992700
0.007764 0.210607 0.994801
0.173129 0.112293 0.985952
0.436229 0.144604 0.979526
0.661651 0.175460 0.972685
0.788229 0.170029 0.969686
0.867048 0.166994 0.963981
0.882836 0.169207 0.962476
0.882830 0.167253 0.961992
0.045717 0.458373 0.941272
0.120048 0.412001 0.959410
0.288795 0.341980 0.968024
0.480739 0.307811 0.971452
0.698530 0.344017 0.970372
0.810533 0.336256 0.975782
0.883477 0.329581 0.972660
0.889713 0.324989 0.972350
0.889429 0.320070 0.972310
0.119062 0.644688 0.901212
0.208429 0.606205 0.930805
0.391793 0.571619 0.948705
0.532051 0.507838 0.955703
0.730313 0.530144 0.961659
0.836091 0.525877 0.967813
0.900751 0.520513 0.969937
0.901681 0.517021 0.969998
0.901425 0.513098 0.970099
0.140788 0.796357 0.870251
0.253888 0.763270 0.906230
0.460955 0.745309 0.927643
0.623234 0.723405 0.941718
0.747508 0.686786 0.950972
0.859126 0.700930 0.956030
0.913624 0.695199 0.964042
0.913412 0.692096 0.964165
0.913268 0.689983 0.964248
0.161938 0.904993 0.842597
0.279654 0.871570 0.887770
0.489773 0.852489 0.912647
0.670934 0.843388 0.929360
0.787013 0.830692 0.940339
0.878426 0.819150 0.948074
0.922126 0.816644 0.958263
0.921848 0.813975 0.958974
0.921677 0.811530 0.959085
0.188018 0.976567 0.824796
0.316572 0.944704 0.869527
0.514038 0.926259 0.899741
0.685288 0.916678 0.919481
0.809881 0.911380 0.931615
0.893842 0.905184 0.941602
0.928813 0.900497 0.949165
0.927822 0.897896 0.955015
0.927791 0.897477 0.955036
0.204398 0.997779 0.816752
0.346459 0.972114 0.861219
0.539696 0.957803 0.889536
0.708537 0.950076 0.908228
0.825028 0.946302 0.925039
0.904132 0.944188 0.936212
0.933011 0.943587 0.942739
0.932653 0.943772 0.952759
0.932653 0.943772 0.952759
0.216129 0.992976 0.811690
0.373112 0.969026 0.853453
0.557652 0.956525 0.883774
0.725082 0.949229 0.903886
0.838610 0.945712 0.921555
0.911490 0.943812 0.932101
0.933270 0.943501 0.940669
0.933014 0.943787 0.949729
0.932653 0.943772 0.952759
0.229053 0.988861 0.804449
0.398894 0.966412 0.848305
0.574136 0.955344 0.877030
0.743168 0.948316 0.898666
0.848910 0.945145 0.915461
0.916164 0.943509 0.928155
0.933284 0.943413 0.938485
0.932923 0.943622 0.944701
0.932653 0.943772 0.952759
0.000000 0.324186 1.000000
0.018451 0.245574 1.000000
0.176275 0.145693 1.000000
0.426865 0.157345 0.994120
0.658083 0.194018 0.980671
0.786056 0.187545 0.972130
0.867402 0.182920 0.966620
0.883097 0.184705 0.965348
0.883043 0.182456 0.965008
0.056828 0.498369 0.980433
0.123893 0.451567 0.994849
0.296744 0.388934 0.993046
0.467741 0.333057 0.986645
0.694711 0.378457 0.980047
0.810486 0.369640 0.975631
0.884193 0.363302 0.972740
0.891691 0.358502 0.972441
0.891405 0.353715 0.972446
0.125333 0.678102 0.946063
0.209543 0.638419 0.966580
0.390795 0.601995 0.977323
0.535722 0.547467 0.975545
0.720401 0.550442 0.972749
0.833358 0.554993 0.970648
0.901106 0.548270 0.969204
0.903560 0.545633 0.969215
0.903262 0.541119 0.969343
0.145152 0.820490 0.918660
0.252787 0.784963 0.945604
0.458300 0.766973 0.963033
0.621579 0.744983 0.964891
0.735860 0.699274 0.964482
0.858095 0.721035 0.963723
0.915056 0.716076 0.963203
0.914882 0.713537 0.963307
0.914684 0.710661 0.963423
0.161374 0.925187 0.897307
0.278894 0.888490 0.932214
0.487224 0.868042 0.948976
0.666251 0.858026 0.957380
0.786803 0.846907 0.958087
0.871934 0.830366 0.958146
0.923114 0.832001 0.958147
0.922999 0.830357 0.958223
0.922853 0.828281 0.958319
0.184408 0.990192 0.884612
0.308759 0.959752 0.919963
0.508827 0.941745 0.938017
0.682566 0.931181 0.952071
0.806550 0.925087 0.953451
0.893408 0.920493 0.953971
0.927914 0.913682 0.954147
0.927961 0.912455 0.954217
0.927972 0.912115 0.954236
0.197577 1.000000 0.881944
0.336115 0.975674 0.914846
0.530509 0.960227 0.933594
0.699843 0.952057 0.948240
0.819577 0.947344 0.952117
0.903032 0.944604 0.952641
0.932653 0.943772 0.952759
0.932653 0.943772 0.952759
0.932653 0.943772 0.952759
0.208379 0.998104 0.879871
0.361777 0.972746 0.912730
0.549814 0.958985 0.932128
0.717195 0.951096 0.943010
0.832986 0.946864 0.952222
0.906590 0.944506 0.952657
0.932653 0.943772 0.952759
0.932653 0.943772 0.952759
0.932653 0.943772 0.952759
0.220844 0.993875 0.876820
0.388306 0.970018 0.910603
0.565296 0.957933 0.928745
0.733756 0.950281 0.939823
0.844859 0.946448 0.951798
0.915516 0.944275 0.952695
0.932653 0.943772 0.952759
0.932653 0.943772 0.952759
0.932653 0.943772 0.952759
0.000000 0.339880 1.000000
0.030436 0.272489 1.000000
0.183700 0.176619 1.000000
0.422449 0.174285 0.994345
0.657395 0.213938 0.981820
0.785896 0.206538 0.973788
0.865247 0.201670 0.968774
0.883638 0.202104 0.967454
0.883551 0.199632 0.967200
0.067380 0.525754 0.988311
0.130561 0.480375 0.994486
0.306626 0.426770 0.990946
0.459133 0.355902 0.985409
0.695592 0.406981 0.979302
0.811724 0.399364 0.975220
0.884443 0.393459 0.972601
0.893618 0.390235 0.972281
0.893403 0.386730 0.972309
0.130650 0.707128 0.955423
0.215119 0.667975 0.971297
0.395851 0.632095 0.974958
0.546415 0.586021 0.973887
0.717095 0.573265 0.971567
0.832908 0.581920 0.969729
0.900537 0.575803 0.968422
0.905370 0.572962 0.968396
0.905197 0.570364 0.968477
0.148047 0.840264 0.933783
0.250682 0.803066 0.954487
0.456109 0.784257 0.961945
0.620755 0.766328 0.963590
0.739297 0.727205 0.963422
0.857630 0.740489 0.962862
0.916442 0.736201 0.962372
0.916254 0.733481 0.962486
0.916040 0.730376 0.962615
0.163199 0.941092 0.918516
0.275823 0.903184 0.943380
0.481216 0.882212 0.953059
0.660505 0.872084 0.956269
0.788508 0.863188 0.957209
0.868783 0.843460 0.957371
0.924281 0.848525 0.957378
0.924117 0.846209 0.957486
0.923966 0.844077 0.957586
0.182461 0.998114 0.910183
0.304386 0.966012 0.935903
0.504045 0.947656 0.947687
0.678708 0.936340 0.951654
0.804567 0.930442 0.953097
0.894135 0.927656 0.953599
0.927388 0.920928 0.953733
0.927447 0.920385 0.953764
0.927498 0.919882 0.953793
0.193143 1.000000 0.912857
0.330043 0.977395 0.935541
0.525525 0.961112 0.946188
0.695535 0.952345 0.950603
0.815556 0.947490 0.952083
0.903032 0.944604 0.952641
0.932653 0.943772 0.952759
0.932653 0.943772 0.952759
0.932653 0.943772 0.952759
0.203089 1.000000 0.916128
0.353467 0.974812 0.937383
0.544329 0.959975 0.946828
0.712420 0.951628 0.950903
0.829653 0.946982 0.952196
0.906590 0.944506 0.952657
0.932653 0.943772 0.952759
0.932653 0.943772 0.952759
0.932653 0.943772 0.952759
0.215300 0.997142 0.914836
0.379380 0.972229 0.939174
0.560377 0.959043 0.947338
0.728307 0.950964 0.951158
0.843557 0.946495 0.952299
0.914805 0.944292 0.952692
0.932653 0.943772 0.952759
0.932653 0.943772 0.952759
0.932653 0.943772 0.952759
