app/public/color-luts/stageAB.cube
TITLE "stage_ab"
LUT_3D_SIZE 5
DOMAIN_MIN 0.0 0.0 0.0
DOMAIN_MAX 1.0 1.0 1.0
0.013502 0.030784 0.008490
0.452437 0.037225 0.058636
0.833494 0.058025 0.142979
0.995868 0.080110 0.244412
0.979482 0.104840 0.372119
0.054048 0.471723 0.000000
0.461411 0.436439 0.037966
0.811504 0.389555 0.143348
0.955539 0.367968 0.244480
0.947782 0.356851 0.364731
0.093956 0.895274 0.000000
0.488742 0.871449 0.019375
0.809585 0.797131 0.102499
0.939094 0.755444 0.201868
0.940206 0.729132 0.315505
0.134470 1.000000 0.000000
0.514187 1.000000 0.011753
0.821591 1.000000 0.060591
0.931525 0.977037 0.160552
0.937442 0.939274 0.261537
0.166531 1.000000 0.000000
0.551945 1.000000 0.014470
0.831609 1.000000 0.039917
0.926694 1.000000 0.122191
0.935114 0.987211 0.218702
0.000000 0.109560 0.416579
0.378147 0.119838 0.499032
0.755768 0.142557 0.569938
0.928440 0.164278 0.647501
0.923036 0.183444 0.730264
0.104341 0.477254 0.298046
0.453751 0.446478 0.446892
0.785337 0.438170 0.552306
0.926972 0.438643 0.644067
0.920718 0.439596 0.731071
0.159429 0.822237 0.206274
0.519534 0.778374 0.380870
0.813711 0.762800 0.503633
0.935220 0.756259 0.601900
0.932361 0.754290 0.691488
0.197677 1.000000 0.152034
0.562768 0.956856 0.320767
0.844777 0.935333 0.452283
0.940511 0.926908 0.555196
0.939385 0.923367 0.649317
0.219942 1.000000 0.114845
0.593294 0.975608 0.271889
0.865986 0.953363 0.406991
0.941085 0.943429 0.518448
0.940413 0.939594 0.611885
0.000000 0.229137 0.802833
0.334573 0.205796 0.827190
0.711157 0.209595 0.855846
0.891402 0.215941 0.882007
0.896298 0.221782 0.911441
0.120791 0.568749 0.692861
0.437812 0.527441 0.785379
0.765275 0.515905 0.837846
0.912162 0.511602 0.884559
0.909336 0.509233 0.921503
0.185670 0.857209 0.615848
0.513958 0.814221 0.736345
0.804852 0.800866 0.800011
0.928081 0.796825 0.857351
0.926255 0.792974 0.896865
0.225944 0.984277 0.566357
0.563453 0.949407 0.694996
0.838187 0.938455 0.768795
0.936244 0.936240 0.831685
0.935045 0.936472 0.876575
0.249359 0.979297 0.538361
0.595987 0.949585 0.661601
0.860016 0.940542 0.747468
0.937060 0.939264 0.805021
0.935735 0.940606 0.859980
0.008025 0.308741 0.992700
0.318846 0.268917 0.985952
0.693849 0.257988 0.972685
0.877520 0.253099 0.963981
0.890975 0.249028 0.961992
0.134238 0.649665 0.901212
0.428666 0.596586 0.948705
0.756044 0.578139 0.961659
0.908240 0.569161 0.969937
0.908863 0.562600 0.970099
0.195396 0.904993 0.845406
0.506029 0.854802 0.912647
0.798105 0.838624 0.940339
0.925965 0.831688 0.958263
0.925652 0.827209 0.959085
0.229669 0.997779 0.822518
0.555511 0.957803 0.892119
0.829482 0.946302 0.925820
0.933491 0.943587 0.942778
0.933202 0.944018 0.952759
0.252231 0.988861 0.810075
0.587079 0.955344 0.879689
0.851255 0.945145 0.916184
0.933610 0.943413 0.938644
0.933202 0.944018 0.952759
0.028455 0.358663 1.000000
0.315674 0.309738 1.000000
0.690768 0.292929 0.981820
0.876492 0.284996 0.968774
0.892342 0.280297 0.967200
0.148968 0.712643 0.955423
0.426081 0.649992 0.974958
0.752284 0.628342 0.971567
0.907859 0.618154 0.968422
0.912041 0.613418 0.968477
0.202058 0.941092 0.919644
0.498981 0.884880 0.953059
0.796329 0.867547 0.957209
0.927764 0.859982 0.957378
0.927510 0.856041 0.957586
0.227723 1.000000 0.916592
0.547081 0.961112 0.946927
0.822278 0.947716 0.952083
0.933202 0.944018 0.952759
0.933202 0.944018 0.952759
0.249001 0.997142 0.918384
0.580280 0.959043 0.947923
0.848701 0.946769 0.952299
0.933202 0.944018 0.952759
0.933202 0.944018 0.952759
