app/public/color-luts/stageABC.cube
TITLE "stage_abc"
LUT_3D_SIZE 33
DOMAIN_MIN 0.0 0.0 0.0
DOMAIN_MAX 1.0 1.0 1.0
0.012427 0.030784 0.007103
0.039930 0.029709 0.014769
0.086616 0.028607 0.013882
0.140281 0.026732 0.014186
0.193012 0.024908 0.015438
0.251768 0.022893 0.018829
0.316853 0.021731 0.025855
0.389253 0.021880 0.034840
0.452437 0.022680 0.044841
0.509085 0.024025 0.055927
0.561706 0.025602 0.066856
0.605079 0.027225 0.076815
0.657977 0.028665 0.085685
0.715110 0.030334 0.095281
0.756453 0.032289 0.105337
0.796385 0.033966 0.113804
0.833494 0.035948 0.123320
0.863745 0.038069 0.133085
0.885544 0.041183 0.146699
0.915921 0.043804 0.158141
0.935610 0.047193 0.172361
0.957099 0.050683 0.186779
0.973633 0.053924 0.199923
0.985062 0.057446 0.213933
0.995868 0.061278 0.228959
0.998936 0.065919 0.246776
0.995803 0.071003 0.265917
0.993024 0.075614 0.283046
0.990314 0.080200 0.299887
0.987475 0.085093 0.317649
0.985171 0.089131 0.332159
0.981696 0.095328 0.354185
0.979482 0.099340 0.368300
0.017493 0.030635 0.008470
0.041232 0.029838 0.013512
0.092872 0.028483 0.013446
0.146070 0.026912 0.012475
0.200322 0.025281 0.012285
0.259333 0.023260 0.014730
0.324471 0.021178 0.019788
0.397625 0.020747 0.027577
0.461181 0.021503 0.038208
0.518219 0.022394 0.047262
0.568913 0.024090 0.059264
0.610798 0.025883 0.070346
0.668312 0.027217 0.079049
0.720095 0.028909 0.088763
0.763425 0.030608 0.097848
0.803691 0.032661 0.108141
0.837612 0.034721 0.118030
0.865902 0.036701 0.127228
0.891880 0.039507 0.139730
0.917508 0.042654 0.153390
0.938232 0.045679 0.166217
0.959654 0.049041 0.180212
0.974549 0.052549 0.194484
0.986220 0.055677 0.207018
0.997904 0.059416 0.221784
1.000000 0.063805 0.238696
0.996947 0.069132 0.258905
0.994371 0.073368 0.274729
0.991562 0.078077 0.292115
0.988356 0.083566 0.312128
0.986055 0.087575 0.326584
0.983225 0.092586 0.344474
0.980343 0.097774 0.362803
0.019844 0.075014 0.002027
0.044664 0.072841 0.010118
0.095422 0.070572 0.015542
0.146859 0.069162 0.016565
0.200401 0.066153 0.017439
0.258842 0.062113 0.019657
0.326702 0.057579 0.023490
0.397585 0.052999 0.029662
0.458380 0.048888 0.038428
0.517335 0.045663 0.046220
0.566764 0.045487 0.059346
0.608486 0.045707 0.071622
0.664044 0.045481 0.080539
0.719890 0.045433 0.089406
0.760570 0.046093 0.100296
0.799008 0.046951 0.111205
0.832882 0.047722 0.120638
0.861510 0.048690 0.130238
0.888377 0.049903 0.140461
0.916093 0.051806 0.153492
0.934428 0.054079 0.167278
0.956764 0.056263 0.180273
0.969642 0.059160 0.195591
0.983282 0.061546 0.208253
0.994922 0.064421 0.222520
0.995977 0.067633 0.237454
0.993257 0.072023 0.256619
0.990850 0.076051 0.273847
0.988384 0.080297 0.291493
0.985921 0.084657 0.309146
0.983648 0.088754 0.325242
0.981637 0.092471 0.339649
0.978583 0.098140 0.360887
0.025835 0.135996 0.000000
0.045744 0.133890 0.000869
0.099805 0.129222 0.015186
0.148174 0.127867 0.017996
0.202094 0.125588 0.021226
0.258120 0.122724 0.024509
0.326589 0.118100 0.028857
0.396686 0.112212 0.035091
0.456556 0.106605 0.043721
0.513401 0.101555 0.053429
0.562721 0.097397 0.062650
0.604505 0.093497 0.073440
0.660709 0.089764 0.081291
0.712680 0.087010 0.090193
0.752241 0.086690 0.102933
0.790805 0.086310 0.113284
0.826588 0.086111 0.123463
0.850254 0.086632 0.135422
0.880372 0.086863 0.145376
0.905226 0.087923 0.159312
0.926354 0.089029 0.172321
0.946268 0.090396 0.186048
0.959221 0.092257 0.201615
0.972746 0.093865 0.215550
0.984077 0.095473 0.228780
0.983190 0.098007 0.245268
0.980974 0.101025 0.263429
0.978673 0.104313 0.282224
0.976549 0.107550 0.299266
0.974575 0.110624 0.315167
0.972239 0.114415 0.333828
0.970471 0.117292 0.348160
0.967964 0.121570 0.368109
0.032245 0.195193 0.000000
0.053552 0.193150 0.000000
0.104969 0.189274 0.011409
0.152386 0.186373 0.017482
0.203433 0.184522 0.021204
0.263158 0.182180 0.025237
0.329214 0.178026 0.030938
0.398451 0.173023 0.038949
0.456664 0.166506 0.047132
0.513273 0.160042 0.057275
0.560971 0.154845 0.066038
0.601525 0.149746 0.077408
0.659856 0.144883 0.086763
0.709016 0.140767 0.095198
0.749046 0.137047 0.104458
0.787533 0.133694 0.113677
0.820949 0.130585 0.123708
0.845546 0.128963 0.133714
0.873717 0.128647 0.143930
0.899984 0.128691 0.155895
0.918544 0.129448 0.171471
0.939173 0.130106 0.185784
0.951207 0.131126 0.200400
0.964901 0.132391 0.216022
0.976657 0.133383 0.228899
0.975002 0.135273 0.244978
0.973299 0.137363 0.260835
0.971047 0.140423 0.281440
0.969413 0.142616 0.296629
0.967349 0.145614 0.315528
0.965224 0.148831 0.334913
0.963614 0.151264 0.349711
0.961840 0.154082 0.365848
0.035956 0.256312 0.000000
0.061970 0.253409 0.000000
0.106723 0.251243 0.002364
0.156297 0.245347 0.015582
0.208670 0.243594 0.020275
0.265868 0.240172 0.025369
0.333555 0.236477 0.031050
0.399936 0.231228 0.038051
0.457445 0.225090 0.048044
0.513923 0.218891 0.059043
0.560458 0.212588 0.069163
0.601718 0.206753 0.080304
0.660311 0.201165 0.089972
0.708003 0.196439 0.098761
0.747953 0.192126 0.107977
0.785754 0.187916 0.118284
0.818808 0.184166 0.128064
0.840248 0.181078 0.137078
0.871437 0.177878 0.146033
0.896048 0.175064 0.155141
0.916285 0.172216 0.166944
0.933399 0.171394 0.179895
0.945783 0.172083 0.195562
0.961838 0.172853 0.211398
0.970402 0.173729 0.225911
0.968946 0.175136 0.241683
0.967415 0.176762 0.258123
0.965655 0.178852 0.276765
0.963843 0.181152 0.295815
0.962231 0.183170 0.312877
0.960634 0.185191 0.329784
0.958964 0.187428 0.347300
0.957601 0.189190 0.361680
0.043632 0.329305 0.000000
0.068470 0.326485 0.000000
0.112532 0.324179 0.000000
0.160335 0.318100 0.011238
0.212766 0.314864 0.018627
0.269841 0.311793 0.024737
0.337450 0.308630 0.030067
0.402379 0.303582 0.037698
0.457945 0.296977 0.047059
0.513729 0.290425 0.058433
0.558630 0.284352 0.071356
0.603966 0.279175 0.082693
0.662237 0.272522 0.093444
0.706459 0.266873 0.103235
0.745902 0.261681 0.112918
0.783289 0.256679 0.123133
0.815903 0.252266 0.132236
0.838174 0.248124 0.142675
0.867109 0.244107 0.152016
0.892290 0.240489 0.160471
0.912086 0.236750 0.171896
0.930124 0.233134 0.184051
0.943183 0.230195 0.195729
0.956835 0.227237 0.208508
0.964411 0.224628 0.221115
0.963320 0.224595 0.234789
0.962018 0.225663 0.251545
0.960632 0.226777 0.269403
0.959047 0.228137 0.289632
0.957790 0.229091 0.305761
0.956422 0.230319 0.322976
0.954785 0.232115 0.343050
0.953617 0.233170 0.357567
0.050550 0.397207 0.000000
0.074671 0.394036 0.000000
0.119478 0.391254 0.000000
0.159882 0.387372 0.000018
0.216412 0.382045 0.015986
0.275147 0.379355 0.022296
0.340259 0.375147 0.029275
0.405272 0.369503 0.036274
0.458540 0.362863 0.045300
0.515479 0.355031 0.056127
0.559313 0.347240 0.068819
0.605969 0.341038 0.080341
0.662794 0.334796 0.093931
0.706256 0.329458 0.106398
0.744336 0.324001 0.115802
0.781593 0.318814 0.125421
0.815323 0.313804 0.135633
0.835994 0.309309 0.146499
0.866696 0.305052 0.155399
0.888813 0.301205 0.164370
0.908881 0.297531 0.173970
0.926375 0.293651 0.186277
0.939383 0.290104 0.198571
0.954236 0.286691 0.210459
0.959977 0.283521 0.224140
0.959021 0.281106 0.236096
0.957928 0.278829 0.249388
0.956860 0.276690 0.262277
0.955471 0.275216 0.279592
0.954244 0.276519 0.297315
0.952936 0.278057 0.315887
0.951627 0.279456 0.334478
0.950452 0.280704 0.351012
0.054048 0.471723 0.000000
0.082226 0.468363 0.000000
0.124764 0.465980 0.000000
0.166952 0.464316 0.000000
0.221241 0.456018 0.010735
0.279928 0.453836 0.019952
0.346110 0.449263 0.027687
0.408332 0.444048 0.034692
0.461411 0.436703 0.042448
0.517035 0.428535 0.053543
0.558767 0.420348 0.066014
0.607173 0.412920 0.079070
0.664114 0.406820 0.091328
0.705872 0.401028 0.104558
0.744221 0.396339 0.116032
0.781687 0.391971 0.127676
0.811504 0.387540 0.140158
0.833014 0.383203 0.150079
0.865463 0.378421 0.158980
0.886054 0.373857 0.169187
0.907329 0.369635 0.178338
0.923987 0.365138 0.190492
0.938201 0.361046 0.201840
0.950605 0.357270 0.213979
0.955539 0.353951 0.227517
0.954733 0.351135 0.240117
0.953945 0.348512 0.252194
0.953022 0.345810 0.265944
0.951981 0.343087 0.281051
0.950890 0.340077 0.296767
0.949873 0.337289 0.311201
0.948925 0.334674 0.324496
0.947782 0.333594 0.341784
0.056750 0.528879 0.000000
0.089160 0.525144 0.000000
0.129736 0.522569 0.000000
0.173469 0.520637 0.000000
0.222155 0.514535 0.001798
0.286105 0.510302 0.018283
0.352090 0.507238 0.025575
0.410948 0.502760 0.032523
0.465486 0.495554 0.040409
0.515313 0.487203 0.050008
0.559027 0.478969 0.062005
0.612620 0.471239 0.076126
0.665482 0.465313 0.087659
0.706853 0.459072 0.101292
0.746211 0.453848 0.114071
0.781423 0.449500 0.125590
0.810778 0.445078 0.137446
0.834658 0.441050 0.149099
0.863258 0.437155 0.161294
0.883848 0.433652 0.171644
0.906376 0.429883 0.180445
0.922902 0.425942 0.191046
0.935329 0.421740 0.204049
0.947617 0.417893 0.216221
0.952372 0.414423 0.228702
0.951680 0.411140 0.242348
0.951093 0.408344 0.253673
0.950359 0.405948 0.266823
0.949598 0.403668 0.280076
0.948590 0.401102 0.297056
0.947831 0.399123 0.309643
0.946858 0.396926 0.325363
0.945819 0.394642 0.341836
0.060920 0.590107 0.000000
0.095133 0.586441 0.000000
0.135341 0.584103 0.000000
0.178657 0.582321 0.000000
0.227105 0.580281 0.000000
0.290783 0.571797 0.015489
0.356250 0.569658 0.023112
0.415202 0.563830 0.030557
0.470467 0.556967 0.038425
0.518891 0.548344 0.046913
0.560684 0.538688 0.057784
0.616333 0.530065 0.071318
0.667678 0.522730 0.084799
0.709151 0.515579 0.098368
0.748098 0.508608 0.111165
0.781392 0.502617 0.122679
0.809784 0.497002 0.134259
0.836091 0.491481 0.146815
0.862820 0.486474 0.158715
0.882811 0.482708 0.169130
0.905190 0.479663 0.180034
0.920216 0.476860 0.190889
0.933340 0.473673 0.203955
0.945766 0.470310 0.215661
0.949949 0.467150 0.228609
0.949400 0.463946 0.242309
0.948887 0.461157 0.254522
0.948321 0.458433 0.267299
0.947712 0.455795 0.280471
0.946970 0.453038 0.295771
0.946193 0.450313 0.311229
0.945461 0.447748 0.325418
0.944709 0.445284 0.339567
0.065845 0.646479 0.000000
0.100491 0.642516 0.000000
0.140039 0.639882 0.000000
0.184144 0.637847 0.000000
0.232554 0.636217 0.000000
0.294589 0.627866 0.008511
0.361708 0.624174 0.021856
0.418148 0.620022 0.028493
0.473013 0.614615 0.035365
0.521665 0.605837 0.044176
0.562493 0.595494 0.054232
0.617189 0.585860 0.066750
0.671142 0.577273 0.080996
0.710427 0.570515 0.093478
0.748080 0.563565 0.107417
0.782018 0.557912 0.119543
0.808705 0.552762 0.131531
0.836430 0.547760 0.144058
0.863215 0.543420 0.155141
0.882969 0.539177 0.166912
0.905223 0.535303 0.178175
0.918850 0.531911 0.188374
0.933525 0.528129 0.201406
0.946216 0.524463 0.214751
0.947596 0.521188 0.227700
0.947233 0.517966 0.241901
0.946852 0.515066 0.255355
0.946489 0.512121 0.266706
0.946017 0.509152 0.280084
0.945468 0.506366 0.294496
0.944813 0.503528 0.310672
0.944254 0.501177 0.323916
0.943644 0.498867 0.337757
0.071122 0.702502 0.000000
0.107082 0.698676 0.000000
0.145515 0.696252 0.000000
0.190165 0.694358 0.000000
0.238908 0.693001 0.000000
0.295165 0.688782 0.000000
0.366768 0.682472 0.019862
0.422014 0.679295 0.026160
0.476070 0.673825 0.032939
0.523469 0.665321 0.040968
0.565937 0.654926 0.050857
0.620888 0.643984 0.062595
0.670735 0.633811 0.076216
0.710881 0.626052 0.088629
0.749343 0.618022 0.103353
0.784021 0.611563 0.116928
0.808233 0.606372 0.128394
0.837627 0.601526 0.140163
0.863504 0.596894 0.152333
0.884251 0.592569 0.164604
0.904740 0.588922 0.175437
0.918632 0.584990 0.185798
0.932516 0.581089 0.196791
0.944880 0.576827 0.210575
0.945500 0.572969 0.224075
0.945319 0.569416 0.237299
0.945058 0.566169 0.251808
0.944796 0.563738 0.264082
0.944468 0.561290 0.277770
0.944121 0.559062 0.291002
0.943625 0.556611 0.308083
0.943171 0.554552 0.322629
0.942648 0.552018 0.337650
0.077457 0.760252 0.000000
0.113112 0.756434 0.000000
0.150877 0.754039 0.000000
0.194204 0.752304 0.000000
0.246168 0.750936 0.000000
0.303033 0.749937 0.000000
0.371349 0.739855 0.016610
0.425959 0.737726 0.024237
0.479801 0.731860 0.031126
0.526438 0.725113 0.037824
0.566550 0.715208 0.046399
0.624183 0.703734 0.059096
0.672296 0.692633 0.071440
0.712620 0.682890 0.084929
0.751029 0.674793 0.098217
0.784855 0.667179 0.112211
0.809280 0.660990 0.124357
0.837798 0.655260 0.136685
0.863690 0.649467 0.149635
0.883833 0.644474 0.161001
0.903887 0.639976 0.171648
0.916452 0.635437 0.183282
0.931683 0.631396 0.193916
0.943614 0.626927 0.207331
0.943623 0.623169 0.219906
0.943569 0.619726 0.233330
0.943455 0.616374 0.247672
0.943311 0.613467 0.260680
0.943135 0.610797 0.273313
0.942896 0.608087 0.287541
0.942591 0.605295 0.303132
0.942228 0.602633 0.319412
0.941860 0.600286 0.334329
0.083610 0.814867 0.000000
0.119073 0.811427 0.000000
0.156696 0.809186 0.000000
0.201654 0.807408 0.000000
0.251378 0.806042 0.000000
0.310676 0.805007 0.000000
0.372603 0.797717 0.008402
0.429767 0.792275 0.022573
0.483217 0.787806 0.028910
0.527317 0.781405 0.034930
0.570193 0.771403 0.042955
0.627554 0.759567 0.054666
0.674598 0.747680 0.067451
0.714569 0.736301 0.080691
0.752445 0.728020 0.092734
0.785585 0.719691 0.106984
0.808132 0.712602 0.120209
0.839396 0.706992 0.132599
0.863871 0.701656 0.145165
0.884527 0.696825 0.157161
0.902289 0.692029 0.169508
0.916614 0.687983 0.180386
0.932991 0.684395 0.190548
0.941587 0.680554 0.202544
0.941749 0.676494 0.216646
0.941841 0.672946 0.229823
0.941879 0.669616 0.243191
0.941865 0.666386 0.257336
0.941823 0.663568 0.269057
0.941731 0.660627 0.282653
0.941595 0.657825 0.296581
0.941367 0.654786 0.314045
0.941164 0.652443 0.327135
0.088643 0.855437 0.000000
0.124945 0.852278 0.000000
0.161906 0.850315 0.000000
0.206375 0.848772 0.000000
0.258323 0.847604 0.000000
0.317840 0.846791 0.000000
0.374851 0.845094 0.001956
0.433840 0.835839 0.021199
0.485521 0.833789 0.026883
0.529621 0.827079 0.033054
0.575210 0.818714 0.040384
0.632484 0.808266 0.050640
0.676440 0.796127 0.062745
0.716272 0.784498 0.075978
0.753081 0.774818 0.088458
0.787029 0.765675 0.102531
0.810167 0.758236 0.115687
0.838287 0.752188 0.127903
0.863976 0.746598 0.140135
0.884967 0.741060 0.153172
0.903246 0.736251 0.165651
0.917411 0.732391 0.176532
0.931847 0.728585 0.187489
0.939976 0.724992 0.198408
0.940264 0.721011 0.211700
0.940479 0.717435 0.224586
0.940646 0.713898 0.238166
0.940759 0.710488 0.252429
0.940814 0.707611 0.265072
0.940827 0.704800 0.278450
0.940798 0.702151 0.291994
0.940715 0.699227 0.307969
0.940586 0.696395 0.323826
0.093956 0.895274 0.000000
0.129829 0.892341 0.000000
0.167217 0.889968 0.000000
0.212584 0.887971 0.000000
0.264813 0.886361 0.000000
0.324193 0.885103 0.000000
0.379452 0.884157 0.000000
0.437020 0.874719 0.017714
0.491827 0.871449 0.026246
0.532473 0.866701 0.031478
0.578240 0.860550 0.037720
0.634883 0.850305 0.047177
0.678832 0.838091 0.058297
0.717606 0.825837 0.071287
0.755866 0.814595 0.084806
0.788401 0.805903 0.096718
0.809585 0.797270 0.110395
0.842233 0.790852 0.123146
0.864247 0.784814 0.135625
0.884668 0.778958 0.148690
0.902747 0.774122 0.160227
0.916420 0.769401 0.172191
0.932213 0.765101 0.183970
0.938684 0.761339 0.194401
0.939094 0.756895 0.207696
0.939428 0.752753 0.220831
0.939692 0.748956 0.233695
0.939914 0.745164 0.247754
0.940067 0.741789 0.260999
0.940164 0.738943 0.272861
0.940227 0.735998 0.286897
0.940243 0.733096 0.302015
0.940206 0.730202 0.318674
0.099736 0.926793 0.000000
0.135364 0.923976 0.000000
0.173103 0.922109 0.000000
0.218806 0.920634 0.000000
0.271327 0.919538 0.000000
0.332642 0.918841 0.000000
0.385202 0.918519 0.000000
0.440296 0.914011 0.012718
0.494684 0.907452 0.024997
0.534494 0.904074 0.029745
0.582623 0.898176 0.035956
0.638666 0.888311 0.044624
0.680498 0.876522 0.054290
0.720325 0.863944 0.066376
0.758347 0.851750 0.080447
0.788558 0.842447 0.091998
0.811424 0.832880 0.105744
0.843193 0.825382 0.119202
0.864471 0.819539 0.131043
0.886774 0.814077 0.143284
0.904799 0.808886 0.155780
0.918828 0.804018 0.168368
0.931432 0.799935 0.179533
0.937460 0.796230 0.190013
0.937895 0.792506 0.201102
0.938361 0.788266 0.215122
0.938734 0.784495 0.228616
0.939039 0.780923 0.241814
0.939310 0.777177 0.256257
0.939492 0.774107 0.268434
0.939646 0.770939 0.282017
0.939751 0.768035 0.295070
0.939825 0.764716 0.312164
0.105265 0.964062 0.000000
0.139810 0.961483 0.000000
0.178886 0.959681 0.000000
0.224243 0.958061 0.000000
0.277410 0.956461 0.000000
0.338618 0.955210 0.000000
0.390640 0.954262 0.000000
0.442409 0.953482 0.007683
0.497026 0.941953 0.024000
0.536502 0.939592 0.028407
0.589825 0.932862 0.035149
0.639972 0.925135 0.042071
0.682909 0.913869 0.050597
0.723836 0.900457 0.061951
0.759262 0.887683 0.075004
0.788882 0.876546 0.088423
0.815028 0.867196 0.100961
0.842689 0.858669 0.114281
0.864190 0.852087 0.126110
0.887185 0.846207 0.138412
0.904245 0.840298 0.151641
0.917564 0.835419 0.163383
0.930900 0.831200 0.174312
0.936392 0.826878 0.185978
0.936897 0.823068 0.196720
0.937452 0.818467 0.210152
0.937906 0.814084 0.222710
0.938320 0.809744 0.236228
0.938685 0.805508 0.250559
0.938959 0.801817 0.263520
0.939179 0.798372 0.276262
0.939360 0.795645 0.290477
0.939503 0.792948 0.306029
0.109879 0.994049 0.000000
0.144749 0.991262 0.000000
0.183834 0.989509 0.000000
0.229797 0.988165 0.000000
0.284252 0.987170 0.000000
0.344486 0.986534 0.000000
0.395665 0.986188 0.000000
0.447781 0.985673 0.005020
0.500969 0.977848 0.022528
0.541065 0.972540 0.027661
0.593168 0.968052 0.033686
0.644913 0.961481 0.040169
0.685787 0.950708 0.047707
0.725546 0.937493 0.057878
0.760114 0.924217 0.069975
0.790283 0.911540 0.083839
0.816996 0.902003 0.095771
0.845270 0.892291 0.109310
0.864951 0.884766 0.121978
0.887930 0.878707 0.133967
0.903103 0.873153 0.146317
0.917667 0.868311 0.158166
0.930601 0.863579 0.170696
0.935269 0.859316 0.181709
0.935839 0.855204 0.191838
0.936447 0.850708 0.204047
0.937053 0.846006 0.218129
0.937540 0.841907 0.231202
0.937972 0.837984 0.244691
0.938349 0.834489 0.258723
0.938619 0.831699 0.270478
0.938882 0.828736 0.284079
0.939104 0.825877 0.298241
0.114386 1.000000 0.000000
0.149203 1.000000 0.000000
0.189739 1.000000 0.000000
0.234566 1.000000 0.000000
0.291094 1.000000 0.000000
0.350589 1.000000 0.000000
0.401216 1.000000 0.000000
0.451363 1.000000 0.003624
0.502899 1.000000 0.019294
0.544530 1.000000 0.026713
0.596615 1.000000 0.032286
0.648038 0.995552 0.038792
0.687341 0.985789 0.045366
0.726053 0.973681 0.053975
0.762484 0.959842 0.065308
0.789203 0.946436 0.078122
0.819281 0.935742 0.091277
0.845806 0.925453 0.105159
0.867552 0.917063 0.117841
0.889415 0.910212 0.129500
0.903703 0.903910 0.141116
0.919366 0.897936 0.153903
0.932230 0.892501 0.166248
0.934221 0.887902 0.176820
0.934910 0.883498 0.187639
0.935535 0.879340 0.198583
0.936206 0.874753 0.211899
0.936778 0.870842 0.224961
0.937296 0.867118 0.238487
0.937770 0.863491 0.252800
0.938132 0.860496 0.265392
0.938466 0.857519 0.278890
0.938750 0.854658 0.292316
0.119757 1.000000 0.000000
0.154461 1.000000 0.000000
0.194936 1.000000 0.000000
0.241965 1.000000 0.000000
0.296796 1.000000 0.000000
0.357002 1.000000 0.000000
0.406881 1.000000 0.000000
0.457068 1.000000 0.004405
0.505677 1.000000 0.019126
0.548088 1.000000 0.025956
0.601923 1.000000 0.031939
0.649421 1.000000 0.037585
0.688765 1.000000 0.043012
0.728183 1.000000 0.050835
0.763675 0.992560 0.061086
0.790352 0.978928 0.073039
0.820377 0.966478 0.086822
0.847633 0.956761 0.099585
0.868379 0.947061 0.112962
0.889934 0.939545 0.124852
0.904013 0.932705 0.136804
0.918677 0.926177 0.149489
0.931899 0.921016 0.160775
0.933185 0.916014 0.172178
0.933995 0.911391 0.183573
0.934654 0.907469 0.193852
0.935417 0.902847 0.207190
0.936072 0.898690 0.220144
0.936652 0.894830 0.233102
0.937209 0.890957 0.247232
0.937666 0.887528 0.260460
0.938029 0.884547 0.272374
0.938405 0.881306 0.286529
0.124456 1.000000 0.000000
0.158612 1.000000 0.000000
0.200092 1.000000 0.000000
0.248253 1.000000 0.000000
0.304925 1.000000 0.000000
0.362544 1.000000 0.000000
0.412224 1.000000 0.000000
0.462692 1.000000 0.005319
0.511120 1.000000 0.019823
0.549969 1.000000 0.024624
0.606267 1.000000 0.031416
0.652228 1.000000 0.036501
0.691689 1.000000 0.041625
0.730459 1.000000 0.048581
0.765694 1.000000 0.057531
0.790676 1.000000 0.068316
0.822273 0.993252 0.081886
0.848549 0.983266 0.094152
0.870606 0.972685 0.108362
0.889947 0.963922 0.121229
0.903143 0.956968 0.132468
0.920011 0.950424 0.144264
0.931422 0.944273 0.156266
0.932404 0.938536 0.168335
0.933183 0.933794 0.179050
0.933904 0.929612 0.189298
0.934612 0.925443 0.200323
0.935417 0.920624 0.214396
0.936094 0.916457 0.227804
0.936679 0.912787 0.240905
0.937245 0.909092 0.255219
0.937666 0.906163 0.267256
0.938087 0.903102 0.280833
0.129064 1.000000 0.000000
0.163919 1.000000 0.000000
0.206206 1.000000 0.000000
0.253726 1.000000 0.000000
0.312297 1.000000 0.000000
0.369118 1.000000 0.000000
0.417366 1.000000 0.000000
0.468738 1.000000 0.006555
0.513977 1.000000 0.019520
0.554781 1.000000 0.024014
0.612194 1.000000 0.031387
0.655455 1.000000 0.035845
0.694614 1.000000 0.040942
0.732623 1.000000 0.046639
0.766407 1.000000 0.054175
0.791383 1.000000 0.064126
0.823621 1.000000 0.076758
0.849839 1.000000 0.090020
0.871451 0.993939 0.103257
0.890696 0.984871 0.116490
0.905804 0.977744 0.127918
0.921406 0.970929 0.139623
0.930777 0.964133 0.152322
0.931777 0.958472 0.163636
0.932605 0.953620 0.174060
0.933415 0.948769 0.185373
0.934105 0.944516 0.196050
0.934873 0.939760 0.209291
0.935515 0.935613 0.221692
0.936191 0.931510 0.235224
0.936822 0.927526 0.249465
0.937329 0.924144 0.262313
0.937777 0.921045 0.275084
0.134470 1.000000 0.000000
0.168657 1.000000 0.000000
0.210345 1.000000 0.000000
0.260821 1.000000 0.000000
0.318093 1.000000 0.000000
0.375631 1.000000 0.000000
0.422061 1.000000 0.000000
0.473102 1.000000 0.007006
0.517779 1.000000 0.019060
0.560691 1.000000 0.023841
0.616288 1.000000 0.030478
0.658265 1.000000 0.035342
0.696141 1.000000 0.039739
0.732305 1.000000 0.044637
0.767977 1.000000 0.051513
0.792776 1.000000 0.060347
0.823759 1.000000 0.072007
0.849560 1.000000 0.085347
0.871688 1.000000 0.097345
0.891109 1.000000 0.111204
0.906235 1.000000 0.123732
0.921763 0.994888 0.135462
0.929963 0.988467 0.147392
0.931043 0.982914 0.158558
0.932081 0.977037 0.170514
0.932931 0.971452 0.181356
0.933645 0.966510 0.191360
0.934432 0.961065 0.203613
0.935227 0.955449 0.217519
0.935879 0.950516 0.230350
0.936488 0.946358 0.243825
0.937043 0.942448 0.257616
0.937463 0.939274 0.269299
0.138043 1.000000 0.000000
0.173613 1.000000 0.000000
0.217237 1.000000 0.000000
0.267088 1.000000 0.000000
0.324669 1.000000 0.000000
0.381731 1.000000 0.000000
0.428007 1.000000 0.000000
0.480518 1.000000 0.008903
0.521609 1.000000 0.019102
0.565492 1.000000 0.023994
0.619300 1.000000 0.029769
0.662026 1.000000 0.035138
0.698594 1.000000 0.038955
0.736440 1.000000 0.043909
0.768493 1.000000 0.049681
0.791443 1.000000 0.056858
0.826418 1.000000 0.067862
0.850192 1.000000 0.080290
0.872494 1.000000 0.092652
0.891149 1.000000 0.106521
0.906978 1.000000 0.119170
0.922272 1.000000 0.130759
0.929177 1.000000 0.142269
0.930494 0.997699 0.154442
0.931592 0.991739 0.166298
0.932463 0.986834 0.176753
0.933267 0.982198 0.187372
0.934014 0.977784 0.198215
0.934832 0.973305 0.211393
0.935560 0.969237 0.224487
0.936227 0.965415 0.237817
0.936862 0.961652 0.252042
0.937361 0.958606 0.264465
0.142470 1.000000 0.000000
0.178863 1.000000 0.000000
0.222577 1.000000 0.000000
0.273904 1.000000 0.000000
0.333234 1.000000 0.000000
0.386764 1.000000 0.000000
0.434766 1.000000 0.000000
0.483423 1.000000 0.009381
0.525011 1.000000 0.019067
0.572492 1.000000 0.024363
0.623952 1.000000 0.029719
0.665300 1.000000 0.034960
0.702810 1.000000 0.038924
0.738821 1.000000 0.043289
0.769253 1.000000 0.047786
0.794065 1.000000 0.054222
0.826555 1.000000 0.064053
0.849848 1.000000 0.075578
0.874360 1.000000 0.088770
0.893389 1.000000 0.100774
0.907912 1.000000 0.113964
0.921463 1.000000 0.125636
0.928340 1.000000 0.137510
0.929802 1.000000 0.150036
0.930943 1.000000 0.160998
0.931999 1.000000 0.172244
0.932908 0.995258 0.183554
